;FLAVOR:Marlin
;TIME:2639
;Filament used: 1.67804m
;Layer height: 0.2
;MINX:90.48
;MINY:90.019
;MINZ:0.2
;MAXX:129.521
;MAXY:129.981
;MAXZ:17
;TARGET_MACHINE.NAME:Creality CR-20 Pro
;Generated with Cura_SteamEngine 5.7.1
M140 S60
M105
M190 S60
M104 S210
M105
M109 S210
M82 ;absolute extrusion mode
M201 X500.00 Y500.00 Z100.00 E5000.00 ;Setup machine max acceleration
M203 X500.00 Y500.00 Z10.00 E50.00 ;Setup machine max feedrate
M204 P500.00 R1000.00 T500.00 ;Setup Print/Retract/Travel acceleration
M205 X8.00 Y8.00 Z0.40 E5.00 ;Setup Jerk
M220 S100 ;Reset Feedrate
M221 S100 ;Reset Flowrate

G28 ;Home
;G29 ; Auto bed leveling
;M420 S1 Z2 ;Enable ABL using saved Mesh and Fade Height

G92 E0 ;Reset Extruder
M413 S1; Enable power-loss recovery
M412 S0; Filament runout sensor disabled;
G1 Z2.0 F3000 ;Move Z Axis up
G1 X10.1 Y20 Z0.28 F5000.0 ;Move to start position
G1 X10.1 Y200.0 Z0.28 F1500.0 E15 ;Draw the first line
G1 X10.4 Y200.0 Z0.28 F5000.0 ;Move to side a little
G1 X10.4 Y20 Z0.28 F1500.0 E30 ;Draw the second line
G92 E0 ;Reset Extruder
G1 Z2.0 F3000 ;Move Z Axis up
G92 E0
G92 E0
G1 F2700 E-5
;LAYER_COUNT:85
;LAYER:0
M107
G0 F6000 X92.566 Y100.744 Z0.2
;TYPE:SKIRT
G1 F2700 E0
G1 F1200 X103.012 Y91.498 E0.46398
G1 X104.831 Y90.559 E0.53207
G1 X107.142 Y90.019 E0.61101
G1 X109.254 Y90.268 E0.68174
G1 X122.565 Y94.727 E1.14864
G1 X124.246 Y95.79 E1.21479
G1 X125.865 Y97.506 E1.29326
G1 X126.722 Y99.478 E1.36478
G1 X129.521 Y113.25 E1.8322
G1 X129.438 Y115.222 E1.89785
G1 X128.749 Y117.486 E1.97656
G1 X127.435 Y119.257 E2.0499
G1 X116.988 Y128.502 E2.51389
G1 X115.169 Y129.441 E2.58198
G1 X112.858 Y129.981 E2.66091
G1 X110.746 Y129.732 E2.73164
G1 X97.435 Y125.273 E3.19855
G1 X95.754 Y124.21 E3.2647
G1 X94.135 Y122.494 E3.34317
G1 X93.278 Y120.522 E3.41468
G1 X90.48 Y106.751 E3.88207
G1 X90.563 Y104.779 E3.94771
G1 X91.252 Y102.515 E4.02642
G1 X92.566 Y100.744 E4.09977
G0 F6000 X92.86 Y101.018
G1 F1200 X103.241 Y91.83 E4.56086
G1 X104.968 Y90.938 E4.62551
G1 X107.167 Y90.424 E4.70062
G1 X109.166 Y90.66 E4.76757
G1 X122.391 Y95.09 E5.23145
G1 X123.991 Y96.102 E5.29442
G1 X125.525 Y97.728 E5.36877
G1 X126.339 Y99.6 E5.43667
G1 X129.119 Y113.281 E5.901
G1 X129.04 Y115.155 E5.96338
G1 X128.386 Y117.305 E6.03813
G1 X127.141 Y118.983 E6.10762
G1 X116.759 Y128.17 E6.56871
G1 X115.032 Y129.062 E6.63336
G1 X112.833 Y129.576 E6.70847
G1 X110.834 Y129.34 E6.77542
G1 X97.609 Y124.91 E7.23931
G1 X96.009 Y123.898 E7.30227
G1 X94.475 Y122.272 E7.37662
G1 X93.661 Y120.4 E7.44452
G1 X90.882 Y106.72 E7.90881
G1 X90.961 Y104.846 E7.9712
G1 X91.615 Y102.696 E8.04594
G1 X92.86 Y101.018 E8.11543
G0 F6000 X93.154 Y101.292
G1 F1200 X103.472 Y92.16 E8.57372
G1 X105.107 Y91.316 E8.63492
G1 X107.189 Y90.829 E8.70603
G1 X109.078 Y91.052 E8.7693
G1 X122.217 Y95.453 E9.23017
G1 X123.736 Y96.414 E9.28995
G1 X125.186 Y97.951 E9.36023
G1 X125.955 Y99.72 E9.42439
G1 X128.717 Y113.312 E9.8857
G1 X128.642 Y115.088 E9.94482
G1 X128.023 Y117.124 E10.0156
G1 X126.847 Y118.709 E10.08124
G1 X116.528 Y127.84 E10.53953
G1 X114.893 Y128.684 E10.60073
G1 X112.811 Y129.171 E10.67184
G1 X110.922 Y128.948 E10.73511
G1 X97.783 Y124.547 E11.19598
G1 X96.264 Y123.586 E11.25576
G1 X94.814 Y122.049 E11.32604
G1 X94.045 Y120.28 E11.3902
G1 X91.284 Y106.689 E11.85147
G1 X91.359 Y104.913 E11.91059
G1 X91.978 Y102.877 E11.98137
G1 X93.154 Y101.292 E12.04701
G0 F6000 X93.448 Y101.566
G1 F1200 X103.701 Y92.492 E12.5024
G1 X105.248 Y91.693 E12.56031
G1 X107.211 Y91.234 E12.62736
G1 X108.99 Y91.444 E12.68694
G1 X122.043 Y95.816 E13.14479
G1 X123.478 Y96.724 E13.20127
G1 X124.847 Y98.175 E13.26762
G1 X125.572 Y99.842 E13.32808
G1 X128.315 Y113.343 E13.7863
G1 X128.244 Y115.021 E13.84216
G1 X127.66 Y116.943 E13.90897
G1 X126.553 Y118.435 E13.97076
G1 X116.299 Y127.508 E14.42615
G1 X114.752 Y128.307 E14.48406
G1 X112.789 Y128.766 E14.55112
G1 X111.01 Y128.556 E14.6107
G1 X97.957 Y124.184 E15.06855
G1 X96.522 Y123.276 E15.12503
G1 X95.153 Y121.825 E15.19138
G1 X94.428 Y120.158 E15.25184
G1 X91.686 Y106.658 E15.71002
G1 X91.757 Y104.98 E15.76588
G1 X92.341 Y103.058 E15.83269
G1 X93.448 Y101.566 E15.89448
G0 F6000 X93.742 Y101.84
G1 F1200 X103.932 Y92.822 E16.34706
G1 X105.387 Y92.071 E16.40152
G1 X107.233 Y91.639 E16.46458
G1 X108.902 Y91.836 E16.52048
G1 X121.869 Y96.179 E16.97531
G1 X123.223 Y97.036 E17.02861
G1 X124.508 Y98.398 E17.09089
G1 X125.188 Y99.962 E17.14761
G1 X127.913 Y113.374 E17.60281
G1 X127.846 Y114.954 E17.65541
G1 X127.297 Y116.762 E17.71825
G1 X126.259 Y118.161 E17.77619
G1 X116.068 Y127.178 E18.22878
G1 X114.613 Y127.929 E18.28324
G1 X112.767 Y128.361 E18.34629
G1 X111.098 Y128.164 E18.40219
G1 X98.131 Y123.821 E18.85702
G1 X96.777 Y122.964 E18.91032
G1 X95.492 Y121.602 E18.9726
G1 X94.812 Y120.038 E19.02932
G1 X92.088 Y106.627 E19.48448
G1 X92.155 Y105.047 E19.53708
G1 X92.704 Y103.239 E19.59992
G1 X93.742 Y101.84 E19.65786
G0 F6000 X94.036 Y102.114
G1 F1200 X104.161 Y93.154 E20.10755
G1 X105.528 Y92.448 E20.15872
G1 X107.255 Y92.044 E20.21771
G1 X108.814 Y92.228 E20.26993
G1 X121.695 Y96.542 E20.72174
G1 X122.968 Y97.348 E20.77185
G1 X124.169 Y98.621 E20.83006
G1 X124.804 Y100.082 E20.88305
G1 X127.511 Y113.405 E21.33522
G1 X127.448 Y114.887 E21.38456
G1 X126.934 Y116.581 E21.44344
G1 X125.965 Y117.887 E21.49753
G1 X115.839 Y126.846 E21.94722
G1 X114.472 Y127.552 E21.99839
G1 X112.745 Y127.956 E22.05738
G1 X111.186 Y127.772 E22.10959
G1 X98.305 Y123.458 E22.5614
G1 X97.032 Y122.652 E22.61152
G1 X95.831 Y121.379 E22.66973
G1 X95.196 Y119.918 E22.72271
G1 X92.49 Y106.596 E23.17485
G1 X92.553 Y105.114 E23.22419
G1 X93.067 Y103.42 E23.28307
G1 X94.036 Y102.114 E23.33716
G0 F6000 X94.33 Y102.388
G1 F1200 X104.392 Y93.484 E23.78404
G1 X105.667 Y92.826 E23.83176
G1 X107.277 Y92.449 E23.88676
G1 X108.726 Y92.62 E23.93528
G1 X121.521 Y96.905 E24.38408
G1 X122.713 Y97.66 E24.43101
G1 X123.83 Y98.844 E24.48515
G1 X124.42 Y100.202 E24.53439
G1 X127.109 Y113.436 E24.98355
G1 X127.05 Y114.82 E25.02963
G1 X126.571 Y116.4 E25.08454
G1 X125.671 Y117.613 E25.13477
G1 X115.608 Y126.516 E25.58166
G1 X114.333 Y127.174 E25.62938
G1 X112.723 Y127.551 E25.68438
G1 X111.274 Y127.38 E25.73291
G1 X98.479 Y123.095 E26.1817
G1 X97.287 Y122.34 E26.22863
G1 X96.17 Y121.156 E26.28277
G1 X95.58 Y119.798 E26.33201
G1 X92.892 Y106.565 E26.78113
G1 X92.951 Y105.181 E26.82721
G1 X93.43 Y103.601 E26.88212
G1 X94.33 Y102.388 E26.93236
G0 F6000 X94.624 Y102.662
G1 F1200 X104.621 Y93.816 E27.37634
G1 X105.808 Y93.203 E27.42078
G1 X107.299 Y92.854 E27.47171
G1 X108.638 Y93.012 E27.51655
G1 X121.347 Y97.268 E27.96233
G1 X122.458 Y97.972 E28.00607
G1 X123.49 Y99.066 E28.05609
G1 X124.037 Y100.324 E28.10172
G1 X126.707 Y113.467 E28.54779
G1 X126.652 Y114.753 E28.5906
G1 X126.208 Y116.219 E28.64155
G1 X125.377 Y117.339 E28.68793
G1 X115.379 Y126.184 E29.13192
G1 X114.192 Y126.797 E29.17635
G1 X112.701 Y127.146 E29.22728
G1 X111.362 Y126.988 E29.27213
G1 X98.653 Y122.732 E29.7179
G1 X97.542 Y122.028 E29.76165
G1 X96.51 Y120.934 E29.81167
G1 X95.963 Y119.676 E29.8573
G1 X93.294 Y106.534 E30.30332
G1 X93.349 Y105.248 E30.34614
G1 X93.793 Y103.782 E30.39708
G1 X94.624 Y102.662 E30.44347
G0 F6000 X94.918 Y102.936
G1 F1200 X104.852 Y94.146 E30.88465
G1 X105.947 Y93.581 E30.92563
G1 X107.321 Y93.259 E30.97257
G1 X108.55 Y93.404 E31.01373
G1 X121.173 Y97.631 E31.45648
G1 X122.2 Y98.282 E31.49693
G1 X123.152 Y99.291 E31.54307
G1 X123.653 Y100.444 E31.58488
G1 X126.305 Y113.498 E32.02793
G1 X126.254 Y114.686 E32.06748
G1 X125.845 Y116.038 E32.11446
G1 X125.083 Y117.065 E32.15699
G1 X115.148 Y125.854 E32.59817
G1 X114.053 Y126.419 E32.63916
G1 X112.679 Y126.741 E32.68609
G1 X111.45 Y126.596 E32.72725
G1 X98.827 Y122.369 E33.17001
G1 X97.8 Y121.718 E33.21045
G1 X96.848 Y120.709 E33.25659
G1 X96.347 Y119.556 E33.2984
G1 X93.696 Y106.503 E33.74141
G1 X93.747 Y105.315 E33.78096
G1 X94.156 Y103.963 E33.82794
G1 X94.918 Y102.936 E33.87048
G0 F6000 X95.212 Y103.21
G1 F1200 X105.081 Y94.478 E34.30876
G1 X106.088 Y93.958 E34.34645
G1 X107.343 Y93.664 E34.38933
G1 X108.462 Y93.796 E34.4268
G1 X120.999 Y97.994 E34.86654
G1 X121.942 Y98.592 E34.90368
G1 X122.813 Y99.515 E34.94589
G1 X123.27 Y100.566 E34.98401
G1 X125.903 Y113.529 E35.42396
G1 X125.856 Y114.619 E35.46025
G1 X125.482 Y115.857 E35.50326
G1 X124.789 Y116.791 E35.54195
G1 X114.919 Y125.522 E35.98023
G1 X113.912 Y126.042 E36.01793
G1 X112.657 Y126.336 E36.0608
G1 X111.538 Y126.204 E36.09827
G1 X99.001 Y122.006 E36.53801
G1 X98.058 Y121.408 E36.57515
G1 X97.187 Y120.485 E36.61736
G1 X96.73 Y119.434 E36.65548
G1 X94.098 Y106.472 E37.0954
G1 X94.145 Y105.382 E37.13168
G1 X94.519 Y104.144 E37.1747
G1 X95.212 Y103.21 E37.21338
G0 F6000 X95.506 Y103.484
G1 F1200 X105.312 Y94.808 E37.64886
G1 X106.227 Y94.336 E37.6831
G1 X107.365 Y94.069 E37.72198
G1 X108.374 Y94.188 E37.75577
G1 X120.825 Y98.357 E38.19249
G1 X121.684 Y98.902 E38.22633
G1 X122.475 Y99.74 E38.26466
G1 X122.886 Y100.686 E38.29896
G1 X125.501 Y113.559 E38.73586
G1 X125.458 Y114.552 E38.76892
G1 X125.119 Y115.676 E38.80797
G1 X124.495 Y116.517 E38.8428
G1 X114.688 Y125.192 E39.27828
G1 X113.773 Y125.664 E39.31253
G1 X112.635 Y125.931 E39.3514
G1 X111.626 Y125.812 E39.3852
G1 X99.175 Y121.643 E39.82192
G1 X98.316 Y121.098 E39.85575
G1 X97.525 Y120.26 E39.89408
G1 X97.114 Y119.314 E39.92838
G1 X94.5 Y106.442 E40.36525
G1 X94.543 Y105.449 E40.39831
G1 X94.882 Y104.325 E40.43735
G1 X95.506 Y103.484 E40.47218
G0 F6000 X95.8 Y103.758
G1 F1200 X105.541 Y95.14 E40.90477
G1 X106.368 Y94.713 E40.93572
G1 X107.387 Y94.474 E40.97053
G1 X108.286 Y94.58 E41.00064
G1 X120.651 Y98.72 E41.43434
G1 X121.426 Y99.212 E41.46488
G1 X122.136 Y99.964 E41.49927
G1 X122.503 Y100.808 E41.52988
G1 X125.099 Y113.589 E41.96366
G1 X125.06 Y114.486 E41.99352
G1 X124.756 Y115.495 E42.02857
G1 X124.201 Y116.243 E42.05955
G1 X114.459 Y124.86 E42.49214
G1 X113.632 Y125.287 E42.52309
G1 X112.613 Y125.526 E42.55791
G1 X111.714 Y125.42 E42.58801
G1 X99.349 Y121.28 E43.02172
G1 X98.574 Y120.788 E43.05225
G1 X97.864 Y120.036 E43.08665
G1 X97.497 Y119.192 E43.11726
G1 X94.902 Y106.412 E43.55099
G1 X94.941 Y105.515 E43.58086
G1 X95.245 Y104.506 E43.61591
G1 X95.8 Y103.758 E43.64689
G0 F6000 X96.094 Y104.032
G1 F1200 X105.77 Y95.472 E44.07657
G1 X106.509 Y95.09 E44.10424
G1 X107.409 Y94.879 E44.13499
G1 X108.199 Y94.972 E44.16144
G1 X120.477 Y99.083 E44.59209
G1 X121.168 Y99.522 E44.61932
G1 X121.798 Y100.189 E44.64984
G1 X122.119 Y100.928 E44.67664
G1 X124.697 Y113.619 E45.10736
G1 X124.662 Y114.42 E45.13403
G1 X124.393 Y115.314 E45.16508
G1 X123.907 Y115.969 E45.19221
G1 X114.23 Y124.528 E45.62189
G1 X113.491 Y124.91 E45.64956
G1 X112.591 Y125.121 E45.68031
G1 X111.801 Y125.028 E45.70677
G1 X99.523 Y120.917 E46.13742
G1 X98.832 Y120.478 E46.16465
G1 X98.202 Y119.811 E46.19516
G1 X97.881 Y119.072 E46.22196
G1 X95.304 Y106.382 E46.65265
G1 X95.339 Y105.581 E46.67931
G1 X95.608 Y104.687 E46.71036
G1 X96.094 Y104.032 E46.73749
G0 F6000 X96.388 Y104.306
G1 F1200 X105.999 Y95.804 E47.16428
G1 X106.649 Y95.468 E47.18862
G1 X107.432 Y95.284 E47.21537
G1 X108.112 Y95.364 E47.23814
G1 X120.3 Y99.445 E47.66564
G1 X120.912 Y99.834 E47.68976
G1 X121.459 Y100.413 E47.71625
G1 X121.736 Y101.05 E47.73935
G1 X124.295 Y113.649 E48.16695
G1 X124.264 Y114.355 E48.19046
G1 X124.03 Y115.133 E48.21748
G1 X123.613 Y115.695 E48.24075
G1 X114.001 Y124.196 E48.66754
G1 X113.351 Y124.532 E48.69188
G1 X112.568 Y124.716 E48.71863
G1 X111.888 Y124.636 E48.74141
G1 X99.7 Y120.555 E49.1689
G1 X99.088 Y120.166 E49.19302
G1 X98.541 Y119.587 E49.21951
G1 X98.264 Y118.95 E49.24262
G1 X95.706 Y106.352 E49.67018
G1 X95.737 Y105.646 E49.69368
G1 X95.971 Y104.868 E49.7207
G1 X96.388 Y104.306 E49.74398
G0 F6000 X96.682 Y104.58
G1 F1200 X106.228 Y96.136 E50.16787
G1 X106.789 Y95.846 E50.18887
G1 X107.455 Y95.689 E50.21163
G1 X108.025 Y95.756 E50.23072
G1 X120.127 Y99.808 E50.6552
G1 X120.653 Y100.143 E50.67594
G1 X121.121 Y100.638 E50.6986
G1 X121.352 Y101.17 E50.71789
G1 X123.893 Y113.679 E51.14243
G1 X123.866 Y114.29 E51.16278
G1 X123.667 Y114.952 E51.18577
G1 X123.319 Y115.421 E51.20519
G1 X113.772 Y123.864 E51.62909
G1 X113.211 Y124.154 E51.65009
G1 X112.545 Y124.311 E51.67285
G1 X111.975 Y124.244 E51.69194
G1 X99.873 Y120.192 E52.11641
G1 X99.347 Y119.857 E52.13716
G1 X98.879 Y119.362 E52.15981
G1 X98.648 Y118.83 E52.1791
G1 X96.108 Y106.322 E52.60361
G1 X96.135 Y105.711 E52.62395
G1 X96.334 Y105.049 E52.64695
G1 X96.682 Y104.58 E52.66637
G0 F6000 X96.976 Y104.854
G1 F1200 X106.457 Y96.468 E53.08736
G1 X106.929 Y96.224 E53.10503
G1 X107.478 Y96.094 E53.1238
G1 X107.938 Y96.148 E53.1392
G1 X119.953 Y100.171 E53.56063
G1 X120.394 Y100.452 E53.57802
G1 X120.783 Y100.863 E53.59685
G1 X120.968 Y101.29 E53.61232
G1 X123.491 Y113.709 E54.03382
G1 X123.468 Y114.225 E54.051
G1 X123.304 Y114.771 E54.06996
G1 X123.025 Y115.147 E54.08553
G1 X113.543 Y123.532 E54.50653
G1 X113.071 Y123.776 E54.5242
G1 X112.522 Y123.906 E54.54296
G1 X112.062 Y123.852 E54.55837
G1 X100.047 Y119.829 E54.9798
G1 X99.606 Y119.548 E54.99719
G1 X99.217 Y119.137 E55.01601
G1 X99.032 Y118.71 E55.03149
G1 X96.51 Y106.292 E55.45294
G1 X96.533 Y105.776 E55.47012
G1 X96.697 Y105.23 E55.48908
G1 X96.976 Y104.854 E55.50466
G0 F6000 X97.27 Y105.128
G1 F1200 X106.686 Y96.8 E55.92275
G1 X107.069 Y96.602 E55.93709
G1 X107.502 Y96.499 E55.9519
G1 X107.851 Y96.54 E55.96358
G1 X119.779 Y100.534 E56.38196
G1 X120.138 Y100.763 E56.39612
G1 X120.444 Y101.086 E56.41092
G1 X120.584 Y101.41 E56.42266
G1 X123.089 Y113.739 E56.8411
G1 X123.07 Y114.16 E56.85512
G1 X122.941 Y114.59 E56.87005
G1 X122.731 Y114.873 E56.88177
G1 X113.314 Y123.2 E57.29987
G1 X112.931 Y123.398 E57.31421
G1 X112.498 Y123.501 E57.32902
G1 X112.149 Y123.46 E57.3407
G1 X100.221 Y119.466 E57.75908
G1 X99.862 Y119.237 E57.77324
G1 X99.556 Y118.914 E57.78804
G1 X99.416 Y118.59 E57.79978
G1 X96.912 Y106.262 E58.21818
G1 X96.931 Y105.841 E58.2322
G1 X97.06 Y105.411 E58.24713
G1 X97.27 Y105.128 E58.25885
G0 F6000 X97.535 Y105.428
G1 F1200 X106.915 Y97.132 E58.67535
G1 X107.209 Y96.98 E58.68635
G1 X107.526 Y96.904 E58.6972
G1 X107.724 Y96.919 E58.7038
G1 X119.605 Y100.897 E59.12053
G1 X119.879 Y101.072 E59.13134
G1 X120.106 Y101.312 E59.14233
G1 X120.192 Y101.49 E59.1489
G1 X122.687 Y113.769 E59.56565
G1 X122.672 Y114.094 E59.57647
G1 X122.578 Y114.408 E59.58737
G1 X122.466 Y114.573 E59.594
G1 X113.085 Y122.868 E60.0105
G1 X112.791 Y123.02 E60.02151
G1 X112.474 Y123.096 E60.03235
G1 X112.276 Y123.081 E60.03896
G1 X100.395 Y119.103 E60.45568
G1 X100.121 Y118.928 E60.46649
G1 X99.894 Y118.688 E60.47748
G1 X99.808 Y118.51 E60.48406
G1 X97.314 Y106.232 E60.90076
G1 X97.329 Y105.907 E60.91159
G1 X97.423 Y105.593 E60.92249
G1 X97.535 Y105.428 E60.92912
G0 F6000 X98.126 Y105.974
G1 F1200 X107.411 Y97.762 E61.3414
G1 X107.549 Y97.703 E61.34639
G1 X119.304 Y101.639 E61.7587
G1 X119.424 Y101.729 E61.76368
G1 X121.893 Y113.878 E62.17602
G1 X121.875 Y114.027 E62.18101
G1 X112.589 Y122.238 E62.59329
G1 X112.451 Y122.297 E62.59828
G1 X100.696 Y118.361 E63.01059
G1 X100.576 Y118.271 E63.01558
G1 X98.108 Y106.123 E63.42788
G1 X98.126 Y105.974 E63.43287
G0 F6000 X97.729 Y105.926
G1 F1200 X97.8 Y105.728 E63.43987
G1 X107.146 Y97.462 E63.85485
G1 X107.392 Y97.335 E63.86406
G1 X107.597 Y97.298 E63.87099
G1 X119.431 Y101.26 E64.28606
G1 X119.664 Y101.409 E64.29526
G1 X119.8 Y101.57 E64.30227
G1 X122.285 Y113.798 E64.71729
G1 X122.272 Y114.075 E64.72651
G1 X122.201 Y114.273 E64.73351
G1 X112.854 Y122.538 E65.1485
G1 X112.608 Y122.665 E65.1577
G1 X112.403 Y122.702 E65.16463
G1 X100.569 Y118.74 E65.57971
G1 X100.336 Y118.591 E65.58891
G1 X100.2 Y118.43 E65.59592
G1 X97.716 Y106.203 E66.01089
G1 X97.729 Y105.926 E66.02012
G1 F2700 E61.02012
;MESH:SkirtInset_USB.STL
G0 F6000 X98.76 Y106.236
G0 X100.207 Y107.776
;TYPE:WALL-INNER
G1 F2700 E66.02012
G1 F824.7 X100.403 Y106.821 E66.0673
G1 F991.7 X100.585 Y106.58 E66.07945
G1 F1043.5 X100.954 Y106.253 E66.09831
G1 F1116.3 X101.425 Y106.099 E66.11603
G1 F1200 X116.373 Y103.063 E66.62335
G1 F1113.7 X116.866 Y103.021 E66.64108
