;FLAVOR:Marlin
;TIME:5126
;Filament used: 3.4378m
;Layer height: 0.2
;MINX:87.434
;MINY:76.436
;MINZ:0.2
;MAXX:146.551
;MAXY:129.981
;MAXZ:17
;TARGET_MACHINE.NAME:Creality CR-20 Pro
;Generated with Cura_SteamEngine 5.7.1
M140 S60
M105
M190 S60
M104 S210
M105
M109 S210
M82 ;absolute extrusion mode
M201 X500.00 Y500.00 Z100.00 E5000.00 ;Setup machine max acceleration
M203 X500.00 Y500.00 Z10.00 E50.00 ;Setup machine max feedrate
M204 P500.00 R1000.00 T500.00 ;Setup Print/Retract/Travel acceleration
M205 X8.00 Y8.00 Z0.40 E5.00 ;Setup Jerk
M220 S100 ;Reset Feedrate
M221 S100 ;Reset Flowrate

G28 ;Home
;G29 ; Auto bed leveling
;M420 S1 Z2 ;Enable ABL using saved Mesh and Fade Height

G92 E0 ;Reset Extruder
M413 S1; Enable power-loss recovery
M412 S0; Filament runout sensor disabled;
G1 Z2.0 F3000 ;Move Z Axis up
G1 X10.1 Y20 Z0.28 F5000.0 ;Move to start position
G1 X10.1 Y200.0 Z0.28 F1500.0 E15 ;Draw the first line
G1 X10.4 Y200.0 Z0.28 F5000.0 ;Move to side a little
G1 X10.4 Y20 Z0.28 F1500.0 E30 ;Draw the second line
G92 E0 ;Reset Extruder
G1 Z2.0 F3000 ;Move Z Axis up
G92 E0
G92 E0
G1 F2700 E-5
;LAYER_COUNT:85
;LAYER:0
M107
G0 F6000 X89.52 Y87.16 Z0.2
;TYPE:SKIRT
G1 F2700 E0
G1 F1200 X99.967 Y77.915 E0.46399
G1 X101.786 Y76.976 E0.53207
G1 X104.097 Y76.436 E0.61101
G1 X106.208 Y76.685 E0.68171
G1 X119.521 Y81.144 E1.14868
G1 X121.202 Y82.207 E1.21483
G1 X122.821 Y83.923 E1.29329
G1 X123.678 Y85.895 E1.36481
G1 X124.525 Y90.062 E1.50624
G1 X126.279 Y90.268 E1.56498
G1 X139.596 Y94.727 E2.03207
G1 X141.277 Y95.79 E2.09822
G1 X142.896 Y97.506 E2.17669
G1 X143.753 Y99.478 E2.24821
G1 X146.551 Y113.249 E2.71559
G1 X146.468 Y115.221 E2.78124
G1 X145.779 Y117.485 E2.85995
G1 X144.465 Y119.256 E2.93329
G1 X134.018 Y128.502 E3.3973
G1 X132.199 Y129.441 E3.46539
G1 X129.888 Y129.981 E3.54432
G1 X127.776 Y129.732 E3.61506
G1 X114.465 Y125.273 E4.08196
G1 X112.784 Y124.21 E4.14811
G1 X111.165 Y122.494 E4.22658
G1 X110.308 Y120.522 E4.29809
G1 X109.461 Y116.356 E4.43949
G1 X107.707 Y116.15 E4.49823
G1 X94.39 Y111.691 E4.96533
G1 X92.709 Y110.628 E5.03148
G1 X91.09 Y108.912 E5.10994
G1 X90.233 Y106.94 E5.18146
G1 X87.434 Y93.167 E5.64891
G1 X87.517 Y91.195 E5.71456
G1 X88.206 Y88.931 E5.79327
G1 X89.52 Y87.16 E5.86662
G0 F6000 X89.814 Y87.434
G1 F1200 X100.196 Y78.247 E6.32771
G1 X101.923 Y77.355 E6.39236
G1 X104.122 Y76.841 E6.46747
G1 X106.12 Y77.077 E6.53438
G1 X119.347 Y81.507 E6.99833
G1 X120.947 Y82.519 E7.0613
G1 X122.481 Y84.145 E7.13565
G1 X123.295 Y86.017 E7.20355
G1 X124.191 Y90.425 E7.35316
G1 X126.192 Y90.66 E7.42017
G1 X139.422 Y95.09 E7.88421
G1 X141.022 Y96.102 E7.94718
G1 X142.556 Y97.728 E8.02153
G1 X143.37 Y99.6 E8.08942
G1 X146.149 Y113.28 E8.55372
G1 X146.07 Y115.154 E8.6161
G1 X145.416 Y117.304 E8.69084
G1 X144.171 Y118.982 E8.76034
G1 X133.789 Y128.17 E9.22145
G1 X132.062 Y129.062 E9.2861
G1 X129.863 Y129.576 E9.36121
G1 X127.864 Y129.34 E9.42816
G1 X114.639 Y124.91 E9.89205
G1 X113.039 Y123.898 E9.95501
G1 X111.505 Y122.272 E10.02936
G1 X110.691 Y120.4 E10.09726
G1 X109.795 Y115.993 E10.24684
G1 X107.794 Y115.758 E10.31385
G1 X94.564 Y111.328 E10.77789
G1 X92.964 Y110.316 E10.84086
G1 X91.43 Y108.69 E10.91521
G1 X90.616 Y106.818 E10.9831
G1 X87.836 Y93.136 E11.44747
G1 X87.915 Y91.262 E11.50985
G1 X88.569 Y89.112 E11.5846
G1 X89.814 Y87.434 E11.65409
G0 F6000 X90.108 Y87.708
G1 F1200 X100.427 Y78.577 E12.11238
G1 X102.062 Y77.733 E12.17358
G1 X104.144 Y77.246 E12.24469
G1 X106.032 Y77.469 E12.30792
G1 X119.173 Y81.87 E12.76886
G1 X120.692 Y82.831 E12.82864
G1 X122.142 Y84.368 E12.89892
G1 X122.911 Y86.137 E12.96308
G1 X123.88 Y90.904 E13.12487
G1 X124.206 Y90.829 E13.13599
G1 X126.105 Y91.052 E13.19959
G1 X139.248 Y95.453 E13.66058
G1 X140.767 Y96.414 E13.72037
G1 X142.217 Y97.951 E13.79065
G1 X142.986 Y99.72 E13.8548
G1 X145.747 Y113.311 E14.31608
G1 X145.672 Y115.087 E14.3752
G1 X145.053 Y117.123 E14.44598
G1 X143.877 Y118.708 E14.51162
G1 X133.558 Y127.84 E14.96993
G1 X131.923 Y128.684 E15.03113
G1 X129.841 Y129.171 E15.10224
G1 X127.952 Y128.948 E15.16551
G1 X114.813 Y124.547 E15.62638
G1 X113.294 Y123.586 E15.68616
G1 X111.844 Y122.049 E15.75644
G1 X111.075 Y120.28 E15.8206
G1 X110.106 Y115.514 E15.98236
G1 X109.78 Y115.589 E15.99348
G1 X107.881 Y115.366 E16.05708
G1 X94.738 Y110.965 E16.51807
G1 X93.219 Y110.004 E16.57786
G1 X91.769 Y108.467 E16.64814
G1 X91 Y106.698 E16.71229
G1 X88.238 Y93.105 E17.17364
G1 X88.313 Y91.329 E17.23276
G1 X88.932 Y89.293 E17.30354
G1 X90.108 Y87.708 E17.36918
G0 F6000 X90.402 Y87.982
G1 F1200 X100.656 Y78.909 E17.82457
G1 X102.203 Y78.11 E17.88248
G1 X104.166 Y77.651 E17.94953
G1 X105.944 Y77.861 E18.00908
G1 X118.999 Y82.233 E18.46699
G1 X120.434 Y83.141 E18.52347
G1 X121.803 Y84.592 E18.58982
G1 X122.528 Y86.259 E18.65028
G1 X123.57 Y91.387 E18.82433
G1 X124.23 Y91.234 E18.84686
G1 X126.018 Y91.444 E18.90674
G1 X139.074 Y95.816 E19.36468
G1 X140.509 Y96.724 E19.42116
G1 X141.878 Y98.175 E19.48751
G1 X142.603 Y99.842 E19.54797
G1 X145.345 Y113.342 E20.00615
G1 X145.274 Y115.02 E20.06202
G1 X144.69 Y116.942 E20.12883
G1 X143.583 Y118.434 E20.19062
G1 X133.329 Y127.508 E20.64603
G1 X131.782 Y128.307 E20.70394
G1 X129.819 Y128.766 E20.77099
G1 X128.04 Y128.556 E20.83057
G1 X114.987 Y124.184 E21.28842
G1 X113.552 Y123.276 E21.3449
G1 X112.183 Y121.825 E21.41125
G1 X111.458 Y120.158 E21.47171
G1 X110.416 Y115.03 E21.64576
G1 X109.756 Y115.184 E21.6683
G1 X107.968 Y114.974 E21.72818
G1 X94.912 Y110.602 E22.18612
G1 X93.477 Y109.694 E22.2426
G1 X92.108 Y108.243 E22.30895
G1 X91.383 Y106.576 E22.36941
G1 X88.64 Y93.074 E22.82766
G1 X88.711 Y91.396 E22.88353
G1 X89.295 Y89.474 E22.95034
G1 X90.402 Y87.982 E23.01213
G0 F6000 X90.696 Y88.256
G1 F1200 X100.887 Y79.239 E23.46471
G1 X102.342 Y78.488 E23.51917
G1 X104.188 Y78.056 E23.58223
G1 X105.856 Y78.253 E23.63809
G1 X118.825 Y82.596 E24.09299
G1 X120.179 Y83.453 E24.14629
G1 X121.464 Y84.815 E24.20857
G1 X122.144 Y86.379 E24.26529
G1 X123.26 Y91.871 E24.45169
G1 X124.255 Y91.639 E24.48567
G1 X125.931 Y91.836 E24.5418
G1 X138.9 Y96.179 E24.99669
G1 X140.254 Y97.036 E25.04999
G1 X141.539 Y98.398 E25.11227
G1 X142.219 Y99.962 E25.16899
G1 X144.943 Y113.373 E25.62415
G1 X144.876 Y114.953 E25.67675
G1 X144.327 Y116.761 E25.73959
G1 X143.289 Y118.16 E25.79753
G1 X133.098 Y127.178 E26.25014
G1 X131.643 Y127.929 E26.3046
G1 X129.797 Y128.361 E26.36766
G1 X128.128 Y128.164 E26.42355
G1 X115.161 Y123.821 E26.87838
G1 X113.807 Y122.964 E26.93168
G1 X112.522 Y121.602 E26.99396
G1 X111.842 Y120.038 E27.05068
G1 X110.726 Y114.547 E27.23705
G1 X109.731 Y114.779 E27.27103
G1 X108.055 Y114.582 E27.32716
G1 X95.086 Y110.239 E27.78205
G1 X93.732 Y109.382 E27.83535
G1 X92.447 Y108.02 E27.89763
G1 X91.767 Y106.456 E27.95435
G1 X89.042 Y93.043 E28.40958
G1 X89.109 Y91.463 E28.46218
G1 X89.658 Y89.655 E28.52503
G1 X90.696 Y88.256 E28.58297
G0 F6000 X90.99 Y88.53
G1 F1200 X101.116 Y79.571 E29.03266
G1 X102.483 Y78.865 E29.08383
G1 X104.21 Y78.461 E29.14282
G1 X105.768 Y78.645 E29.195
G1 X118.651 Y82.959 E29.64687
G1 X119.924 Y83.765 E29.69699
G1 X121.125 Y85.038 E29.7552
G1 X121.76 Y86.499 E29.80818
G1 X122.95 Y92.354 E30.0069
G1 X124.28 Y92.044 E30.05232
G1 X125.844 Y92.228 E30.1047
G1 X138.726 Y96.542 E30.55654
G1 X139.999 Y97.348 E30.60666
G1 X141.2 Y98.621 E30.66487
G1 X141.835 Y100.082 E30.71785
G1 X144.541 Y113.404 E31.16999
G1 X144.478 Y114.886 E31.21933
G1 X143.964 Y116.58 E31.27821
G1 X142.995 Y117.886 E31.3323
G1 X132.869 Y126.846 E31.78201
G1 X131.502 Y127.552 E31.83318
G1 X129.775 Y127.956 E31.89217
G1 X128.216 Y127.772 E31.94438
G1 X115.335 Y123.458 E32.39619
G1 X114.062 Y122.652 E32.44631
G1 X112.861 Y121.379 E32.50452
G1 X112.226 Y119.918 E32.5575
G1 X111.036 Y114.064 E32.75619
G1 X109.706 Y114.374 E32.80161
G1 X108.142 Y114.19 E32.85399
G1 X95.26 Y109.876 E33.30583
G1 X93.987 Y109.07 E33.35594
G1 X92.786 Y107.797 E33.41415
G1 X92.151 Y106.336 E33.46714
G1 X89.444 Y93.012 E33.91935
G1 X89.507 Y91.53 E33.96869
G1 X90.021 Y89.836 E34.02757
G1 X90.99 Y88.53 E34.08165
G0 F6000 X91.284 Y88.804
G1 F1200 X101.347 Y79.901 E34.52854
G1 X102.622 Y79.243 E34.57626
G1 X104.232 Y78.866 E34.63126
G1 X105.68 Y79.037 E34.67975
G1 X118.477 Y83.322 E35.12861
G1 X119.669 Y84.077 E35.17554
G1 X120.786 Y85.261 E35.22968
G1 X121.376 Y86.619 E35.27892
G1 X122.64 Y92.838 E35.49
G1 X124.305 Y92.449 E35.54687
G1 X125.757 Y92.62 E35.59549
G1 X138.552 Y96.905 E36.04429
G1 X139.744 Y97.66 E36.09122
G1 X140.861 Y98.844 E36.14536
G1 X141.451 Y100.202 E36.1946
G1 X144.139 Y113.435 E36.64372
G1 X144.08 Y114.819 E36.6898
G1 X143.601 Y116.399 E36.74471
G1 X142.701 Y117.612 E36.79495
G1 X132.638 Y126.516 E37.24185
G1 X131.363 Y127.174 E37.28957
G1 X129.753 Y127.551 E37.34457
G1 X128.304 Y127.38 E37.3931
G1 X115.509 Y123.095 E37.84189
G1 X114.317 Y122.34 E37.88882
G1 X113.2 Y121.156 E37.94296
G1 X112.61 Y119.798 E37.99221
G1 X111.346 Y113.58 E38.20325
G1 X109.681 Y113.969 E38.26012
G1 X108.229 Y113.798 E38.30875
G1 X95.434 Y109.513 E38.75754
G1 X94.242 Y108.758 E38.80447
G1 X93.125 Y107.574 E38.85861
G1 X92.535 Y106.216 E38.90786
G1 X89.846 Y92.981 E39.35705
G1 X89.905 Y91.597 E39.40312
G1 X90.384 Y90.017 E39.45803
G1 X91.284 Y88.804 E39.50827
G0 F6000 X91.578 Y89.078
G1 F1200 X101.576 Y80.233 E39.95226
G1 X102.763 Y79.62 E39.99669
G1 X104.254 Y79.271 E40.04762
G1 X105.592 Y79.429 E40.09243
G1 X118.303 Y83.685 E40.53827
G1 X119.414 Y84.389 E40.58202
G1 X120.446 Y85.483 E40.63204
G1 X120.993 Y86.741 E40.67767
G1 X122.356 Y93.453 E40.90546
G1 X122.841 Y93.202 E40.92363
G1 X124.33 Y92.854 E40.97449
G1 X125.669 Y93.012 E41.01933
G1 X138.378 Y97.268 E41.46511
G1 X139.489 Y97.972 E41.50885
G1 X140.521 Y99.066 E41.55887
G1 X141.068 Y100.324 E41.6045
G1 X143.737 Y113.466 E42.05053
G1 X143.682 Y114.752 E42.09334
G1 X143.238 Y116.218 E42.14428
G1 X142.407 Y117.338 E42.19067
G1 X132.409 Y126.184 E42.63468
G1 X131.222 Y126.797 E42.67911
G1 X129.731 Y127.146 E42.73004
G1 X128.392 Y126.988 E42.77489
G1 X115.683 Y122.732 E43.22066
G1 X114.572 Y122.028 E43.26441
G1 X113.54 Y120.934 E43.31443
G1 X112.993 Y119.676 E43.36006
G1 X111.63 Y112.965 E43.58782
G1 X111.145 Y113.216 E43.60599
G1 X109.656 Y113.564 E43.65685
G1 X108.317 Y113.406 E43.70169
G1 X95.608 Y109.15 E44.14747
G1 X94.497 Y108.446 E44.19121
G1 X93.465 Y107.352 E44.24123
G1 X92.918 Y106.094 E44.28686
G1 X90.248 Y92.95 E44.73296
G1 X90.303 Y91.664 E44.77577
G1 X90.747 Y90.198 E44.82672
G1 X91.578 Y89.078 E44.8731
G0 F6000 X91.872 Y89.352
G1 F1200 X101.807 Y80.563 E45.31429
G1 X102.902 Y79.998 E45.35527
G1 X104.276 Y79.676 E45.4022
G1 X105.504 Y79.821 E45.44333
G1 X118.129 Y84.048 E45.88615
G1 X119.156 Y84.699 E45.92659
G1 X120.108 Y85.708 E45.97273
G1 X120.609 Y86.861 E46.01455
G1 X122.069 Y94.05 E46.25853
G1 X122.98 Y93.58 E46.29263
G1 X124.352 Y93.259 E46.33949
G1 X125.581 Y93.404 E46.38066
G1 X138.204 Y97.631 E46.82341
G1 X139.231 Y98.282 E46.86385
G1 X140.183 Y99.291 E46.90999
G1 X140.684 Y100.444 E46.95181
G1 X143.335 Y113.497 E47.39481
G1 X143.284 Y114.685 E47.43436
G1 X142.875 Y116.037 E47.48134
G1 X142.113 Y117.064 E47.52388
G1 X132.178 Y125.854 E47.96508
G1 X131.083 Y126.419 E48.00607
G1 X129.709 Y126.741 E48.053
G1 X128.48 Y126.596 E48.09416
G1 X115.857 Y122.369 E48.53692
G1 X114.83 Y121.718 E48.57736
G1 X113.878 Y120.709 E48.6235
G1 X113.377 Y119.556 E48.66531
G1 X111.917 Y112.368 E48.90927
G1 X111.006 Y112.838 E48.94337
G1 X109.634 Y113.159 E48.99023
G1 X108.405 Y113.014 E49.03139
G1 X95.782 Y108.787 E49.47415
G1 X94.755 Y108.136 E49.51459
G1 X93.803 Y107.127 E49.56073
G1 X93.302 Y105.974 E49.60254
G1 X90.65 Y92.919 E50.04562
G1 X90.701 Y91.731 E50.08517
G1 X91.11 Y90.379 E50.13215
G1 X91.872 Y89.352 E50.17468
G0 F6000 X92.166 Y89.626
G1 F1200 X102.036 Y80.895 E50.61297
G1 X103.043 Y80.375 E50.65067
G1 X104.298 Y80.081 E50.69354
G1 X105.416 Y80.213 E50.73098
G1 X117.955 Y84.411 E51.17078
G1 X118.898 Y85.009 E51.20792
G1 X119.769 Y85.932 E51.25013
G1 X120.226 Y86.983 E51.28825
G1 X121.803 Y94.752 E51.55192
G1 X122.115 Y94.476 E51.56577
G1 X123.119 Y93.958 E51.60335
G1 X124.374 Y93.664 E51.64622
G1 X125.493 Y93.796 E51.6837
G1 X138.03 Y97.994 E52.12343
G1 X138.973 Y98.592 E52.16057
G1 X139.844 Y99.515 E52.20278
G1 X140.301 Y100.566 E52.2409
G1 X142.933 Y113.528 E52.68082
G1 X142.886 Y114.618 E52.7171
G1 X142.512 Y115.856 E52.76012
G1 X141.819 Y116.79 E52.7988
G1 X131.949 Y125.522 E53.23711
G1 X130.942 Y126.042 E53.2748
G1 X129.687 Y126.336 E53.31767
G1 X128.568 Y126.204 E53.35515
G1 X116.031 Y122.006 E53.79489
G1 X115.088 Y121.408 E53.83203
G1 X114.217 Y120.485 E53.87424
G1 X113.76 Y119.434 E53.91236
G1 X112.183 Y111.666 E54.17599
G1 X111.871 Y111.942 E54.18985
G1 X110.867 Y112.46 E54.22742
G1 X109.612 Y112.754 E54.27029
G1 X108.493 Y112.622 E54.30777
G1 X95.956 Y108.424 E54.74751
G1 X95.013 Y107.826 E54.78465
G1 X94.142 Y106.903 E54.82686
G1 X93.685 Y105.852 E54.86497
G1 X91.052 Y92.888 E55.30496
G1 X91.099 Y91.798 E55.34125
G1 X91.473 Y90.56 E55.38426
G1 X92.166 Y89.626 E55.42295
G0 F6000 X92.46 Y89.9
G1 F1200 X102.267 Y81.225 E55.85843
G1 X103.182 Y80.753 E55.89267
G1 X104.32 Y80.486 E55.93155
G1 X105.328 Y80.605 E55.96531
G1 X117.781 Y84.774 E56.40209
G1 X118.64 Y85.319 E56.43593
G1 X119.431 Y86.157 E56.47425
G1 X119.842 Y87.103 E56.50856
G1 X121.549 Y95.511 E56.79392
G1 X122.343 Y94.808 E56.82919
G1 X123.258 Y94.336 E56.86343
G1 X124.396 Y94.069 E56.90231
G1 X125.405 Y94.188 E56.9361
G1 X137.856 Y98.357 E57.37282
G1 X138.715 Y98.902 E57.40666
G1 X139.506 Y99.74 E57.44498
G1 X139.917 Y100.686 E57.47929
G1 X142.531 Y113.558 E57.91615
G1 X142.488 Y114.551 E57.94921
G1 X142.149 Y115.675 E57.98826
G1 X141.525 Y116.516 E58.02309
G1 X131.718 Y125.192 E58.45859
G1 X130.803 Y125.664 E58.49284
G1 X129.665 Y125.931 E58.53172
G1 X128.656 Y125.812 E58.56551
G1 X116.205 Y121.643 E59.00223
G1 X115.346 Y121.098 E59.03606
G1 X114.555 Y120.26 E59.07439
G1 X114.144 Y119.314 E59.1087
G1 X112.437 Y110.907 E59.39402
G1 X111.643 Y111.61 E59.42929
G1 X110.728 Y112.082 E59.46353
G1 X109.59 Y112.349 E59.50241
G1 X108.581 Y112.23 E59.5362
G1 X96.13 Y108.061 E59.97292
G1 X95.271 Y107.516 E60.00676
G1 X94.48 Y106.678 E60.04509
G1 X94.069 Y105.732 E60.07939
G1 X91.454 Y92.858 E60.51633
G1 X91.497 Y91.865 E60.54939
G1 X91.836 Y90.741 E60.58843
G1 X92.46 Y89.9 E60.62326
G0 F6000 X92.754 Y90.174
G1 F1200 X102.496 Y81.557 E61.05585
G1 X103.323 Y81.13 E61.08681
G1 X104.342 Y80.891 E61.12162
G1 X105.241 Y80.997 E61.15173
G1 X117.607 Y85.137 E61.58546
G1 X118.382 Y85.629 E61.61599
G1 X119.092 Y86.381 E61.65039
G1 X119.459 Y87.225 E61.681
G1 X121.295 Y96.27 E61.98797
G1 X122.572 Y95.14 E62.04469
G1 X123.399 Y94.713 E62.07564
G1 X124.418 Y94.474 E62.11045
G1 X125.317 Y94.58 E62.14056
G1 X137.682 Y98.72 E62.57426
G1 X138.457 Y99.212 E62.6048
G1 X139.167 Y99.964 E62.63919
G1 X139.534 Y100.808 E62.6698
G1 X142.129 Y113.588 E63.10354
G1 X142.09 Y114.485 E63.13341
G1 X141.786 Y115.494 E63.16846
G1 X141.231 Y116.242 E63.19943
G1 X131.489 Y124.86 E63.63204
G1 X130.662 Y125.287 E63.663
G1 X129.643 Y125.526 E63.69781
G1 X128.744 Y125.42 E63.72792
G1 X116.379 Y121.28 E64.16162
G1 X115.604 Y120.788 E64.19215
G1 X114.894 Y120.036 E64.22655
G1 X114.527 Y119.192 E64.25716
G1 X112.691 Y110.148 E64.5641
G1 X111.414 Y111.278 E64.62081
G1 X110.587 Y111.705 E64.65177
G1 X109.568 Y111.944 E64.68658
G1 X108.669 Y111.838 E64.71669
G1 X96.304 Y107.698 E65.15039
G1 X95.529 Y107.206 E65.18092
G1 X94.819 Y106.454 E65.21532
G1 X94.452 Y105.61 E65.24593
G1 X91.856 Y92.828 E65.67974
G1 X91.895 Y91.931 E65.70961
G1 X92.199 Y90.922 E65.74466
G1 X92.754 Y90.174 E65.77563
G0 F6000 X93.048 Y90.448
G1 F1200 X102.725 Y81.889 E66.20532
G1 X103.464 Y81.507 E66.23299
G1 X104.364 Y81.296 E66.26374
G1 X105.154 Y81.389 E66.29019
G1 X117.433 Y85.5 E66.72088
G1 X118.124 Y85.939 E66.7481
G1 X118.754 Y86.606 E66.77862
G1 X119.075 Y87.345 E66.80542
G1 X121.041 Y97.029 E67.13408
G1 X122.801 Y95.472 E67.21224
G1 X123.54 Y95.09 E67.23991
G1 X124.44 Y94.879 E67.27065
G1 X125.23 Y94.972 E67.29711
G1 X137.508 Y99.083 E67.72776
G1 X138.199 Y99.522 E67.75499
