;FLAVOR:Marlin
;TIME:5287
;Filament used: 3.22512m
;Layer height: 0.2
;MINX:86.692
;MINY:76.867
;MINZ:0.2
;MAXX:140.62
;MAXY:135.199
;MAXZ:14.6
;TARGET_MACHINE.NAME:Creality CR-20 Pro
;Generated with Cura_SteamEngine 5.7.1
M140 S60
M105
M190 S60
M104 S210
M105
M109 S210
M82 ;absolute extrusion mode
M201 X500.00 Y500.00 Z100.00 E5000.00 ;Setup machine max acceleration
M203 X500.00 Y500.00 Z10.00 E50.00 ;Setup machine max feedrate
M204 P500.00 R1000.00 T500.00 ;Setup Print/Retract/Travel acceleration
M205 X8.00 Y8.00 Z0.40 E5.00 ;Setup Jerk
M220 S100 ;Reset Feedrate
M221 S100 ;Reset Flowrate

G28 ;Home
;G29 ; Auto bed leveling
;M420 S1 Z2 ;Enable ABL using saved Mesh and Fade Height

G92 E0 ;Reset Extruder
M413 S1; Enable power-loss recovery
M412 S0; Filament runout sensor disabled;
G1 Z2.0 F3000 ;Move Z Axis up
G1 X10.1 Y20 Z0.28 F5000.0 ;Move to start position
G1 X10.1 Y200.0 Z0.28 F1500.0 E15 ;Draw the first line
G1 X10.4 Y200.0 Z0.28 F5000.0 ;Move to side a little
G1 X10.4 Y20 Z0.28 F1500.0 E30 ;Draw the second line
G92 E0 ;Reset Extruder
G1 Z2.0 F3000 ;Move Z Axis up
G92 E0
G92 E0
G1 F2700 E-5
;LAYER_COUNT:73
;LAYER:0
M107
G0 F6000 X88.778 Y87.591 Z0.2
;TYPE:SKIRT
G1 F2700 E0
G1 F1200 X99.225 Y78.346 E0.46399
G1 X101.044 Y77.407 E0.53207
G1 X103.355 Y76.867 E0.61101
G1 X105.467 Y77.116 E0.68174
G1 X118.778 Y81.575 E1.14865
G1 X120.459 Y82.638 E1.2148
G1 X122.078 Y84.354 E1.29326
G1 X122.935 Y86.326 E1.36478
G1 X125.119 Y97.081 E1.72979
G1 X133.664 Y99.945 E2.02954
G1 X135.344 Y101.007 E2.09564
G1 X136.964 Y102.724 E2.17416
G1 X137.821 Y104.696 E2.24567
G1 X140.62 Y118.468 E2.7131
G1 X140.537 Y120.44 E2.77874
G1 X139.848 Y122.704 E2.85745
G1 X138.534 Y124.475 E2.9308
G1 X128.087 Y133.72 E3.39479
G1 X126.268 Y134.659 E3.46287
G1 X123.957 Y135.199 E3.54181
G1 X121.846 Y134.95 E3.61251
G1 X108.533 Y130.491 E4.07948
G1 X106.852 Y129.428 E4.14563
G1 X105.233 Y127.712 E4.2241
G1 X104.376 Y125.74 E4.29561
G1 X102.193 Y114.986 E4.66058
G1 X93.648 Y112.122 E4.96033
G1 X91.968 Y111.06 E5.02644
G1 X90.348 Y109.343 E5.10495
G1 X89.491 Y107.371 E5.17647
G1 X86.692 Y93.598 E5.64392
G1 X86.775 Y91.626 E5.70957
G1 X87.464 Y89.362 E5.78828
G1 X88.778 Y87.591 E5.86163
G0 F6000 X89.072 Y87.865
G1 F1200 X99.454 Y78.678 E6.32272
G1 X101.181 Y77.786 E6.38737
G1 X103.38 Y77.272 E6.46248
G1 X105.379 Y77.508 E6.52942
G1 X118.604 Y81.938 E6.99331
G1 X120.204 Y82.95 E7.05628
G1 X121.738 Y84.576 E7.13063
G1 X122.552 Y86.448 E7.19852
G1 X124.773 Y97.387 E7.56978
G1 X133.49 Y100.308 E7.87555
G1 X135.089 Y101.319 E7.93847
G1 X136.624 Y102.946 E8.01287
G1 X137.438 Y104.818 E8.08077
G1 X140.218 Y118.499 E8.5451
G1 X140.139 Y120.373 E8.60748
G1 X139.485 Y122.523 E8.68223
G1 X138.24 Y124.201 E8.75172
G1 X127.858 Y133.388 E9.21281
G1 X126.131 Y134.28 E9.27746
G1 X123.932 Y134.794 E9.35257
G1 X121.934 Y134.558 E9.41949
G1 X108.707 Y130.128 E9.88344
G1 X107.107 Y129.116 E9.9464
G1 X105.573 Y127.49 E10.02075
G1 X104.759 Y125.618 E10.08865
G1 X102.539 Y114.68 E10.45987
G1 X93.822 Y111.759 E10.76564
G1 X92.223 Y110.748 E10.82856
G1 X90.688 Y109.121 E10.90296
G1 X89.874 Y107.249 E10.97085
G1 X87.094 Y93.567 E11.43522
G1 X87.173 Y91.693 E11.4976
G1 X87.827 Y89.543 E11.57235
G1 X89.072 Y87.865 E11.64184
G0 F6000 X89.366 Y88.139
G1 F1200 X99.685 Y79.008 E12.10013
G1 X101.32 Y78.164 E12.16132
G1 X103.402 Y77.677 E12.23244
G1 X105.291 Y77.9 E12.29571
G1 X118.43 Y82.301 E12.75657
G1 X119.949 Y83.262 E12.81636
G1 X121.399 Y84.799 E12.88664
G1 X122.168 Y86.568 E12.95079
G1 X124.427 Y97.693 E13.32836
G1 X133.316 Y100.671 E13.64016
G1 X134.834 Y101.631 E13.6999
G1 X136.285 Y103.169 E13.77023
G1 X137.054 Y104.938 E13.83438
G1 X139.816 Y118.53 E14.2957
G1 X139.741 Y120.306 E14.35482
G1 X139.122 Y122.342 E14.4256
G1 X137.946 Y123.927 E14.49124
G1 X127.627 Y133.058 E14.94953
G1 X125.992 Y133.902 E15.01072
G1 X123.91 Y134.389 E15.08184
G1 X122.022 Y134.166 E15.14507
G1 X108.881 Y129.765 E15.606
G1 X107.362 Y128.804 E15.66579
G1 X105.912 Y127.267 E15.73607
G1 X105.143 Y125.498 E15.80022
G1 X102.885 Y114.374 E16.17776
G1 X93.996 Y111.396 E16.48956
G1 X92.478 Y110.436 E16.54929
G1 X91.027 Y108.898 E16.61962
G1 X90.258 Y107.129 E16.68378
G1 X87.496 Y93.536 E17.14512
G1 X87.571 Y91.76 E17.20424
G1 X88.19 Y89.724 E17.27502
G1 X89.366 Y88.139 E17.34066
G0 F6000 X89.66 Y88.413
G1 F1200 X99.914 Y79.34 E17.79605
G1 X101.461 Y78.541 E17.85396
G1 X103.424 Y78.082 E17.92101
G1 X105.203 Y78.292 E17.98059
G1 X118.256 Y82.664 E18.43844
G1 X119.691 Y83.572 E18.49493
G1 X121.06 Y85.023 E18.56128
G1 X121.785 Y86.69 E18.62174
G1 X124.081 Y97.999 E19.00555
G1 X133.142 Y101.034 E19.32338
G1 X134.579 Y101.943 E19.37993
G1 X135.946 Y103.392 E19.44619
G1 X136.67 Y105.058 E19.5066
G1 X139.414 Y118.561 E19.96489
G1 X139.343 Y120.239 E20.02076
G1 X138.759 Y122.161 E20.08757
G1 X137.652 Y123.653 E20.14936
G1 X127.398 Y132.726 E20.60475
G1 X125.851 Y133.525 E20.66266
G1 X123.888 Y133.984 E20.72971
G1 X122.11 Y133.774 E20.78926
G1 X109.055 Y129.402 E21.24717
G1 X107.62 Y128.494 E21.30365
G1 X106.251 Y127.043 E21.37
G1 X105.526 Y125.376 E21.43046
G1 X103.231 Y114.068 E21.81424
G1 X94.17 Y111.033 E22.13206
G1 X92.733 Y110.124 E22.18862
G1 X91.366 Y108.675 E22.25487
G1 X90.642 Y107.009 E22.31529
G1 X87.898 Y93.505 E22.77361
G1 X87.969 Y91.827 E22.82947
G1 X88.553 Y89.905 E22.89629
G1 X89.66 Y88.413 E22.95808
G0 F6000 X89.954 Y88.687
G1 F1200 X100.145 Y79.67 E23.41066
G1 X101.6 Y78.919 E23.46512
G1 X103.446 Y78.487 E23.52818
G1 X105.115 Y78.684 E23.58408
G1 X118.082 Y83.027 E24.03891
G1 X119.436 Y83.884 E24.0922
G1 X120.721 Y85.246 E24.15448
G1 X121.401 Y86.81 E24.21121
G1 X123.735 Y98.305 E24.60133
G1 X132.968 Y101.397 E24.92519
G1 X134.324 Y102.255 E24.97856
G1 X135.606 Y103.614 E25.0407
G1 X136.287 Y105.18 E25.09749
G1 X139.012 Y118.592 E25.55269
G1 X138.945 Y120.172 E25.60529
G1 X138.396 Y121.98 E25.66814
G1 X137.358 Y123.379 E25.72608
G1 X127.167 Y132.396 E26.17866
G1 X125.712 Y133.147 E26.23312
G1 X123.866 Y133.579 E26.29618
G1 X122.198 Y133.382 E26.35204
G1 X109.229 Y129.039 E26.80694
G1 X107.875 Y128.182 E26.86023
G1 X106.59 Y126.82 E26.92251
G1 X105.91 Y125.256 E26.97924
G1 X103.577 Y113.762 E27.36932
G1 X94.344 Y110.67 E27.69318
G1 X92.988 Y109.812 E27.74655
G1 X91.706 Y108.453 E27.80869
G1 X91.025 Y106.887 E27.86548
G1 X88.3 Y93.474 E28.32072
G1 X88.367 Y91.894 E28.37331
G1 X88.916 Y90.086 E28.43616
G1 X89.954 Y88.687 E28.4941
G0 F6000 X90.248 Y88.961
G1 F1200 X100.374 Y80.002 E28.94379
G1 X101.741 Y79.296 E28.99496
G1 X103.468 Y78.892 E29.05395
G1 X105.027 Y79.076 E29.10616
G1 X117.908 Y83.39 E29.55798
G1 X119.181 Y84.196 E29.60809
G1 X120.382 Y85.469 E29.6663
G1 X121.017 Y86.93 E29.71928
G1 X123.389 Y98.611 E30.11572
G1 X132.794 Y101.76 E30.4456
G1 X134.066 Y102.565 E30.49567
G1 X135.268 Y103.839 E30.55393
G1 X135.903 Y105.3 E30.60691
G1 X138.61 Y118.623 E31.05909
G1 X138.547 Y120.105 E31.10843
G1 X138.033 Y121.799 E31.16731
G1 X137.064 Y123.105 E31.22139
G1 X126.938 Y132.064 E31.67108
G1 X125.571 Y132.77 E31.72225
G1 X123.844 Y133.174 E31.78125
G1 X122.286 Y132.99 E31.83343
G1 X109.403 Y128.676 E32.2853
G1 X108.13 Y127.87 E32.33541
G1 X106.929 Y126.597 E32.39362
G1 X106.294 Y125.136 E32.44661
G1 X103.923 Y113.456 E32.84301
G1 X94.518 Y110.307 E33.17289
G1 X93.246 Y109.502 E33.22296
G1 X92.044 Y108.228 E33.28121
G1 X91.409 Y106.767 E33.3342
G1 X88.702 Y93.443 E33.78641
G1 X88.765 Y91.961 E33.83575
G1 X89.279 Y90.267 E33.89462
G1 X90.248 Y88.961 E33.94871
G0 F6000 X90.542 Y89.235
G1 F1200 X100.605 Y80.332 E34.3956
G1 X101.88 Y79.674 E34.44332
G1 X103.49 Y79.297 E34.49832
G1 X104.939 Y79.468 E34.54684
G1 X117.734 Y83.753 E34.99564
G1 X118.926 Y84.508 E35.04257
G1 X120.043 Y85.692 E35.09671
G1 X120.633 Y87.05 E35.14595
G1 X123.043 Y98.917 E35.54871
G1 X132.62 Y102.123 E35.88461
G1 X133.811 Y102.877 E35.9315
G1 X134.929 Y104.062 E35.98568
G1 X135.519 Y105.42 E36.03493
G1 X138.208 Y118.654 E36.48409
G1 X138.149 Y120.038 E36.53016
G1 X137.67 Y121.618 E36.58508
G1 X136.77 Y122.831 E36.63531
G1 X126.707 Y131.734 E37.0822
G1 X125.432 Y132.392 E37.12992
G1 X123.822 Y132.769 E37.18492
G1 X122.374 Y132.598 E37.23341
G1 X109.577 Y128.313 E37.68227
G1 X108.385 Y127.558 E37.7292
G1 X107.268 Y126.374 E37.78334
G1 X106.678 Y125.016 E37.83258
G1 X104.269 Y113.15 E38.2353
G1 X94.692 Y109.944 E38.57121
G1 X93.501 Y109.19 E38.61809
G1 X92.383 Y108.005 E38.67227
G1 X91.793 Y106.647 E38.72152
G1 X89.104 Y93.412 E39.17071
G1 X89.163 Y92.028 E39.21679
G1 X89.642 Y90.448 E39.2717
G1 X90.542 Y89.235 E39.32194
G0 F6000 X90.836 Y89.509
G1 F1200 X100.834 Y80.664 E39.76592
G1 X102.021 Y80.051 E39.81036
G1 X103.512 Y79.702 E39.86129
G1 X104.851 Y79.86 E39.90613
G1 X117.56 Y84.116 E40.35191
G1 X118.671 Y84.82 E40.39565
G1 X119.703 Y85.914 E40.44568
G1 X120.25 Y87.172 E40.4913
G1 X122.697 Y99.223 E40.9003
G1 X132.446 Y102.486 E41.24223
G1 X133.556 Y103.189 E41.28593
G1 X134.589 Y104.284 E41.336
G1 X135.136 Y105.542 E41.38163
G1 X137.806 Y118.685 E41.82769
G1 X137.751 Y119.971 E41.8705
G1 X137.307 Y121.437 E41.92145
G1 X136.476 Y122.557 E41.96784
G1 X126.478 Y131.402 E42.41182
G1 X125.291 Y132.015 E42.45626
G1 X123.8 Y132.364 E42.50719
G1 X122.462 Y132.206 E42.552
G1 X109.751 Y127.95 E42.99784
G1 X108.64 Y127.246 E43.04158
G1 X107.608 Y126.152 E43.09161
G1 X107.061 Y124.894 E43.13723
G1 X104.615 Y112.844 E43.54619
G1 X94.866 Y109.581 E43.88812
G1 X93.756 Y108.878 E43.93182
G1 X92.723 Y107.783 E43.98189
G1 X92.176 Y106.525 E44.02752
G1 X89.506 Y93.381 E44.47362
G1 X89.561 Y92.095 E44.51643
G1 X90.005 Y90.629 E44.56737
G1 X90.836 Y89.509 E44.61376
G0 F6000 X91.13 Y89.783
G1 F1200 X101.065 Y80.994 E45.05494
G1 X102.16 Y80.429 E45.09593
G1 X103.534 Y80.107 E45.14286
G1 X104.763 Y80.252 E45.18402
G1 X117.386 Y84.479 E45.62678
G1 X118.413 Y85.13 E45.66722
G1 X119.365 Y86.139 E45.71336
G1 X119.866 Y87.292 E45.75518
G1 X122.351 Y99.529 E46.17049
G1 X132.272 Y102.849 E46.51845
G1 X133.298 Y103.499 E46.55884
G1 X134.251 Y104.509 E46.60503
G1 X134.752 Y105.662 E46.64684
G1 X137.404 Y118.716 E47.08989
G1 X137.353 Y119.904 E47.12944
G1 X136.944 Y121.256 E47.17642
G1 X136.182 Y122.283 E47.21895
G1 X126.247 Y131.072 E47.66014
G1 X125.152 Y131.637 E47.70112
G1 X123.778 Y131.959 E47.74806
G1 X122.55 Y131.814 E47.78918
G1 X109.925 Y127.587 E48.232
G1 X108.898 Y126.936 E48.27245
G1 X107.946 Y125.927 E48.31859
G1 X107.445 Y124.774 E48.3604
G1 X104.961 Y112.538 E48.77567
G1 X95.04 Y109.218 E49.12363
G1 X94.014 Y108.568 E49.16403
G1 X93.061 Y107.558 E49.21021
G1 X92.56 Y106.405 E49.25203
G1 X89.908 Y93.35 E49.69511
G1 X89.959 Y92.162 E49.73466
G1 X90.368 Y90.81 E49.78164
G1 X91.13 Y89.783 E49.82417
G0 F6000 X91.424 Y90.057
G1 F1200 X101.294 Y81.326 E50.26246
G1 X102.301 Y80.806 E50.30015
G1 X103.556 Y80.512 E50.34302
G1 X104.675 Y80.644 E50.3805
G1 X117.212 Y84.842 E50.82024
G1 X118.155 Y85.44 E50.85738
G1 X119.026 Y86.363 E50.89959
G1 X119.483 Y87.414 E50.9377
G1 X122.005 Y99.835 E51.35926
G1 X132.098 Y103.212 E51.71324
G1 X133.04 Y103.809 E51.75034
G1 X133.912 Y104.733 E51.79259
G1 X134.369 Y105.784 E51.83071
G1 X137.002 Y118.747 E52.27067
G1 X136.955 Y119.837 E52.30695
G1 X136.581 Y121.075 E52.34997
G1 X135.888 Y122.009 E52.38865
G1 X126.018 Y130.74 E52.82694
G1 X125.011 Y131.26 E52.86463
G1 X123.756 Y131.554 E52.9075
G1 X122.638 Y131.422 E52.94495
G1 X110.099 Y127.224 E53.38475
G1 X109.156 Y126.626 E53.42189
G1 X108.285 Y125.703 E53.4641
G1 X107.828 Y124.652 E53.50221
G1 X105.307 Y112.232 E53.92373
G1 X95.214 Y108.855 E54.27772
G1 X94.272 Y108.258 E54.31481
G1 X93.4 Y107.334 E54.35707
G1 X92.943 Y106.283 E54.39518
G1 X90.31 Y93.319 E54.83517
G1 X90.357 Y92.229 E54.87146
G1 X90.731 Y90.991 E54.91447
G1 X91.424 Y90.057 E54.95316
G0 F6000 X91.718 Y90.331
G1 F1200 X101.525 Y81.656 E55.38864
G1 X102.44 Y81.184 E55.42288
G1 X103.578 Y80.917 E55.46176
G1 X104.587 Y81.036 E55.49555
G1 X117.038 Y85.205 E55.93227
G1 X117.897 Y85.75 E55.96611
G1 X118.688 Y86.588 E56.00443
G1 X119.099 Y87.534 E56.03874
G1 X121.659 Y100.141 E56.46661
G1 X131.924 Y103.575 E56.82662
G1 X132.782 Y104.119 E56.86041
G1 X133.574 Y104.958 E56.89879
G1 X133.985 Y105.904 E56.93309
G1 X136.6 Y118.777 E57.36999
G1 X136.557 Y119.77 E57.40305
G1 X136.218 Y120.894 E57.4421
G1 X135.594 Y121.735 E57.47693
G1 X125.787 Y130.41 E57.91241
G1 X124.872 Y130.882 E57.94666
G1 X123.734 Y131.149 E57.98553
G1 X122.726 Y131.03 E58.01929
G1 X110.273 Y126.861 E58.45608
G1 X109.414 Y126.316 E58.48991
G1 X108.623 Y125.478 E58.52824
G1 X108.212 Y124.532 E58.56254
G1 X105.653 Y111.926 E58.99037
G1 X95.388 Y108.492 E59.35039
G1 X94.53 Y107.948 E59.38418
G1 X93.738 Y107.109 E59.42255
G1 X93.327 Y106.163 E59.45686
G1 X90.712 Y93.289 E59.89379
G1 X90.755 Y92.296 E59.92685
G1 X91.094 Y91.172 E59.9659
G1 X91.718 Y90.331 E60.00073
G0 F6000 X92.012 Y90.605
G1 F1200 X101.754 Y81.988 E60.43331
G1 X102.581 Y81.561 E60.46427
G1 X103.6 Y81.322 E60.49908
G1 X104.499 Y81.428 E60.52919
G1 X116.864 Y85.568 E60.96289
G1 X117.639 Y86.06 E60.99342
G1 X118.349 Y86.812 E61.02782
G1 X118.716 Y87.656 E61.05843
G1 X121.313 Y100.447 E61.49254
G1 X131.75 Y103.938 E61.85858
G1 X132.524 Y104.429 E61.88907
G1 X133.235 Y105.182 E61.92351
G1 X133.602 Y106.026 E61.95412
G1 X136.198 Y118.807 E62.3879
G1 X136.159 Y119.704 E62.41776
G1 X135.855 Y120.713 E62.45281
G1 X135.3 Y121.461 E62.48379
G1 X125.558 Y130.078 E62.91638
G1 X124.731 Y130.505 E62.94733
G1 X123.712 Y130.744 E62.98215
G1 X122.813 Y130.638 E63.01225
G1 X110.447 Y126.498 E63.44599
G1 X109.672 Y126.006 E63.47652
G1 X108.962 Y125.254 E63.51092
G1 X108.595 Y124.41 E63.54153
G1 X105.999 Y111.62 E63.9756
G1 X95.562 Y108.129 E64.34164
G1 X94.788 Y107.638 E64.37212
G1 X94.077 Y106.885 E64.40657
G1 X93.71 Y106.041 E64.43718
G1 X91.114 Y93.259 E64.87099
G1 X91.153 Y92.362 E64.90085
G1 X91.457 Y91.353 E64.9359
G1 X92.012 Y90.605 E64.96688
G0 F6000 X92.306 Y90.879
G1 F1200 X101.983 Y82.32 E65.39657
G1 X102.722 Y81.938 E65.42424
G1 X103.622 Y81.727 E65.45498
G1 X104.412 Y81.82 E65.48144
G1 X116.69 Y85.931 E65.91209
G1 X117.381 Y86.37 E65.93932
G1 X118.011 Y87.037 E65.96984
G1 X118.332 Y87.776 E65.99663
G1 X120.899 Y100.417 E66.42566
G1 X120.897 Y100.729 E66.43603
G1 X131.576 Y104.301 E66.81056
G1 X132.266 Y104.739 E66.83774
G1 X132.897 Y105.407 E66.86831
G1 X133.218 Y106.146 E66.89511
G1 X135.796 Y118.837 E67.32583
G1 X135.761 Y119.638 E67.3525
G1 X135.492 Y120.532 E67.38355
G1 X135.006 Y121.187 E67.41068
G1 X125.329 Y129.746 E67.84036
G1 X124.59 Y130.128 E67.86803
G1 X123.69 Y130.339 E67.89878
G1 X122.9 Y130.246 E67.92524
G1 X110.621 Y126.135 E68.35592
G1 X109.93 Y125.696 E68.38315
G1 X109.3 Y125.029 E68.41366
G1 X108.979 Y124.29 E68.44046
G1 X106.413 Y111.65 E68.86944
G1 X106.415 Y111.338 E68.87982
G1 X95.736 Y107.766 E69.25435
G1 X95.046 Y107.328 E69.28153
G1 X94.415 Y106.66 E69.3121
G1 X94.094 Y105.921 E69.33889
G1 X91.516 Y93.229 E69.76965
G1 X91.551 Y92.428 E69.79632
G1 X91.82 Y91.534 E69.82737
G1 X92.306 Y90.879 E69.8545
G0 F6000 X92.6 Y91.153
G1 F1200 X102.212 Y82.652 E70.28129
G1 X102.862 Y82.316 E70.30562
G1 X103.645 Y82.132 E70.33238
G1 X104.325 Y82.212 E70.35515
G1 X116.513 Y86.293 E70.78264
G1 X117.125 Y86.682 E70.80676
G1 X117.672 Y87.261 E70.83326
G1 X117.949 Y87.898 E70.85636
G1 X120.507 Y100.497 E71.28395
G1 X120.484 Y101.012 E71.3011
G1 X131.402 Y104.664 E71.68401
G1 X132.008 Y105.049 E71.70789
G1 X132.558 Y105.631 E71.73452
G1 X132.835 Y106.268 E71.75763
G1 X135.394 Y118.867 E72.18523
G1 X135.363 Y119.573 E72.20873
G1 X135.129 Y120.351 E72.23575
G1 X134.712 Y120.913 E72.25903
G1 X125.1 Y129.414 E72.68582
G1 X124.45 Y129.75 E72.71016
G1 X123.667 Y129.934 E72.73691
G1 X122.987 Y129.854 E72.75968
G1 X110.798 Y125.773 E73.18721
G1 X110.186 Y125.384 E73.21133
G1 X109.639 Y124.805 E73.23782
G1 X109.362 Y124.168 E73.26092
G1 X106.805 Y111.57 E73.68848
G1 X106.828 Y111.055 E73.70562
G1 X95.91 Y107.403 E74.08853
G1 X95.304 Y107.018 E74.11241
G1 X94.754 Y106.436 E74.13905
G1 X94.477 Y105.799 E74.16215
G1 X91.918 Y93.199 E74.58978
G1 X91.949 Y92.493 E74.61329
G1 X92.183 Y91.715 E74.64031
G1 X92.6 Y91.153 E74.66358
G0 F6000 X92.894 Y91.427
