(VECTRIC POST REV.)
(4AC7A5FFD0F6DEDC3B51B569B338FFCA)
T1M6
G17
G0Z20.320
G0X0.000Y0.000S11740M3
G0X-45.362Y-76.945
G0Z5.080
G1Z-1.000F76.0
G1X-45.361Y-76.961F120.0
X-45.358Y-76.978
X-45.351Y-76.995
X-45.342Y-77.010
X-45.330Y-77.025
X-45.315Y-77.037
X-45.300Y-77.046
X-45.283Y-77.053
X-45.266Y-77.056
X-45.250Y-77.057
X-45.234Y-77.056
X-45.217Y-77.053
X-45.200Y-77.046
X-45.185Y-77.037
X-45.170Y-77.025
X-45.158Y-77.010
X-45.149Y-76.995
X-45.142Y-76.978
X-45.139Y-76.961
X-45.138Y-76.945
Y-71.945
X-45.139Y-71.929
X-45.142Y-71.912
X-45.149Y-71.895
X-45.158Y-71.880
X-45.170Y-71.865
X-45.185Y-71.853
X-45.200Y-71.844
X-45.217Y-71.837
X-45.234Y-71.834
X-45.250Y-71.832
X-45.266Y-71.834
X-45.283Y-71.837
X-45.300Y-71.844
X-45.315Y-71.853
X-45.330Y-71.865
X-45.342Y-71.880
X-45.351Y-71.895
X-45.358Y-71.912
X-45.361Y-71.929
X-45.362Y-71.945
Y-76.945
G0Z5.080
G1Z-2.000F76.0
G1X-45.361Y-76.961F120.0
X-45.358Y-76.978
X-45.351Y-76.995
X-45.342Y-77.010
X-45.330Y-77.025
X-45.315Y-77.037
X-45.300Y-77.046
X-45.283Y-77.053
X-45.266Y-77.056
X-45.250Y-77.057
X-45.234Y-77.056
X-45.217Y-77.053
X-45.200Y-77.046
X-45.185Y-77.037
X-45.170Y-77.025
X-45.158Y-77.010
X-45.149Y-76.995
X-45.142Y-76.978
X-45.139Y-76.961
X-45.138Y-76.945
Y-71.945
X-45.139Y-71.929
X-45.142Y-71.912
X-45.149Y-71.895
X-45.158Y-71.880
X-45.170Y-71.865
X-45.185Y-71.853
X-45.200Y-71.844
X-45.217Y-71.837
X-45.234Y-71.834
X-45.250Y-71.832
X-45.266Y-71.834
X-45.283Y-71.837
X-45.300Y-71.844
X-45.315Y-71.853
X-45.330Y-71.865
X-45.342Y-71.880
X-45.351Y-71.895
X-45.358Y-71.912
X-45.361Y-71.929
X-45.362Y-71.945
Y-76.945
G0Z5.080
G1Z-3.000F76.0
G1X-45.361Y-76.961F120.0
X-45.358Y-76.978
X-45.351Y-76.995
X-45.342Y-77.010
X-45.330Y-77.025
X-45.315Y-77.037
X-45.300Y-77.046
X-45.283Y-77.053
X-45.266Y-77.056
X-45.250Y-77.057
X-45.234Y-77.056
X-45.217Y-77.053
X-45.200Y-77.046
X-45.185Y-77.037
X-45.170Y-77.025
X-45.158Y-77.010
X-45.149Y-76.995
X-45.142Y-76.978
X-45.139Y-76.961
X-45.138Y-76.945
Y-71.945
X-45.139Y-71.929
X-45.142Y-71.912
X-45.149Y-71.895
X-45.158Y-71.880
X-45.170Y-71.865
X-45.185Y-71.853
X-45.200Y-71.844
X-45.217Y-71.837
X-45.234Y-71.834
X-45.250Y-71.832
X-45.266Y-71.834
X-45.283Y-71.837
X-45.300Y-71.844
X-45.315Y-71.853
X-45.330Y-71.865
X-45.342Y-71.880
X-45.351Y-71.895
X-45.358Y-71.912
X-45.361Y-71.929
X-45.362Y-71.945
Y-76.945
G0Z5.080
G1Z-4.000F76.0
G1X-45.361Y-76.961F120.0
X-45.358Y-76.978
X-45.351Y-76.995
X-45.342Y-77.010
X-45.330Y-77.025
X-45.315Y-77.037
X-45.300Y-77.046
X-45.283Y-77.053
X-45.266Y-77.056
X-45.250Y-77.057
X-45.234Y-77.056
X-45.217Y-77.053
X-45.200Y-77.046
X-45.185Y-77.037
X-45.170Y-77.025
X-45.158Y-77.010
X-45.149Y-76.995
X-45.142Y-76.978
X-45.139Y-76.961
X-45.138Y-76.945
Y-71.945
X-45.139Y-71.929
X-45.142Y-71.912
X-45.149Y-71.895
X-45.158Y-71.880
X-45.170Y-71.865
X-45.185Y-71.853
X-45.200Y-71.844
X-45.217Y-71.837
X-45.234Y-71.834
X-45.250Y-71.832
X-45.266Y-71.834
X-45.283Y-71.837
X-45.300Y-71.844
X-45.315Y-71.853
X-45.330Y-71.865
X-45.342Y-71.880
X-45.351Y-71.895
X-45.358Y-71.912
X-45.361Y-71.929
X-45.362Y-71.945
Y-76.945
G0Z5.080
G1Z-5.000F76.0
G1X-45.361Y-76.961F120.0
X-45.358Y-76.978
X-45.351Y-76.995
X-45.342Y-77.010
X-45.330Y-77.025
X-45.315Y-77.037
X-45.300Y-77.046
X-45.283Y-77.053
X-45.266Y-77.056
X-45.250Y-77.057
X-45.234Y-77.056
X-45.217Y-77.053
X-45.200Y-77.046
X-45.185Y-77.037
X-45.170Y-77.025
X-45.158Y-77.010
X-45.149Y-76.995
X-45.142Y-76.978
X-45.139Y-76.961
X-45.138Y-76.945
Y-71.945
X-45.139Y-71.929
X-45.142Y-71.912
X-45.149Y-71.895
X-45.158Y-71.880
X-45.170Y-71.865
X-45.185Y-71.853
X-45.200Y-71.844
X-45.217Y-71.837
X-45.234Y-71.834
X-45.250Y-71.832
X-45.266Y-71.834
X-45.283Y-71.837
X-45.300Y-71.844
X-45.315Y-71.853
X-45.330Y-71.865
X-45.342Y-71.880
X-45.351Y-71.895
X-45.358Y-71.912
X-45.361Y-71.929
X-45.362Y-71.945
Y-76.945
G0Z5.080
G0X-4.863
G1Z-1.000F76.0
G1X-4.861Y-76.961F120.0
X-4.858Y-76.978
X-4.851Y-76.995
X-4.842Y-77.010
X-4.830Y-77.025
X-4.815Y-77.037
X-4.800Y-77.046
X-4.783Y-77.053
X-4.766Y-77.056
X-4.750Y-77.057
X-4.735Y-77.057
X-4.720Y-77.053
X-4.705Y-77.048
X-4.690Y-77.040
X-4.677Y-77.030
X-4.665Y-77.018
X-4.655Y-77.005
X-4.647Y-76.990
X-4.642Y-76.975
X-4.638Y-76.960
X-4.637Y-76.945
Y-71.945
X-4.638Y-71.930
X-4.642Y-71.915
X-4.647Y-71.900
X-4.655Y-71.885
X-4.665Y-71.872
X-4.677Y-71.860
X-4.690Y-71.850
X-4.705Y-71.842
X-4.720Y-71.837
X-4.735Y-71.833
X-4.750Y-71.832
X-4.766Y-71.834
X-4.783Y-71.837
X-4.800Y-71.844
X-4.815Y-71.853
X-4.830Y-71.865
X-4.842Y-71.880
X-4.851Y-71.895
X-4.858Y-71.912
X-4.861Y-71.929
X-4.863Y-71.945
Y-76.945
G0Z5.080
G1Z-2.000F76.0
G1X-4.861Y-76.961F120.0
X-4.858Y-76.978
X-4.851Y-76.995
X-4.842Y-77.010
X-4.830Y-77.025
X-4.815Y-77.037
X-4.800Y-77.046
X-4.783Y-77.053
X-4.766Y-77.056
X-4.750Y-77.057
X-4.735Y-77.057
X-4.720Y-77.053
X-4.705Y-77.048
X-4.690Y-77.040
X-4.677Y-77.030
X-4.665Y-77.018
X-4.655Y-77.005
X-4.647Y-76.990
X-4.642Y-76.975
X-4.638Y-76.960
X-4.637Y-76.945
Y-71.945
X-4.638Y-71.930
X-4.642Y-71.915
X-4.647Y-71.900
X-4.655Y-71.885
X-4.665Y-71.872
X-4.677Y-71.860
X-4.690Y-71.850
X-4.705Y-71.842
X-4.720Y-71.837
X-4.735Y-71.833
X-4.750Y-71.832
X-4.766Y-71.834
X-4.783Y-71.837
X-4.800Y-71.844
X-4.815Y-71.853
X-4.830Y-71.865
X-4.842Y-71.880
X-4.851Y-71.895
X-4.858Y-71.912
X-4.861Y-71.929
X-4.863Y-71.945
Y-76.945
G0Z5.080
G1Z-3.000F76.0
G1X-4.861Y-76.961F120.0
X-4.858Y-76.978
X-4.851Y-76.995
X-4.842Y-77.010
X-4.830Y-77.025
X-4.815Y-77.037
X-4.800Y-77.046
X-4.783Y-77.053
X-4.766Y-77.056
X-4.750Y-77.057
X-4.735Y-77.057
X-4.720Y-77.053
X-4.705Y-77.048
X-4.690Y-77.040
X-4.677Y-77.030
X-4.665Y-77.018
X-4.655Y-77.005
X-4.647Y-76.990
X-4.642Y-76.975
X-4.638Y-76.960
X-4.637Y-76.945
Y-71.945
X-4.638Y-71.930
X-4.642Y-71.915
X-4.647Y-71.900
X-4.655Y-71.885
X-4.665Y-71.872
X-4.677Y-71.860
X-4.690Y-71.850
X-4.705Y-71.842
X-4.720Y-71.837
X-4.735Y-71.833
X-4.750Y-71.832
X-4.766Y-71.834
X-4.783Y-71.837
X-4.800Y-71.844
X-4.815Y-71.853
X-4.830Y-71.865
X-4.842Y-71.880
X-4.851Y-71.895
X-4.858Y-71.912
X-4.861Y-71.929
X-4.863Y-71.945
Y-76.945
G0Z5.080
G1Z-4.000F76.0
G1X-4.861Y-76.961F120.0
X-4.858Y-76.978
X-4.851Y-76.995
X-4.842Y-77.010
X-4.830Y-77.025
X-4.815Y-77.037
X-4.800Y-77.046
X-4.783Y-77.053
X-4.766Y-77.056
X-4.750Y-77.057
X-4.735Y-77.057
X-4.720Y-77.053
X-4.705Y-77.048
X-4.690Y-77.040
X-4.677Y-77.030
X-4.665Y-77.018
X-4.655Y-77.005
X-4.647Y-76.990
X-4.642Y-76.975
X-4.638Y-76.960
X-4.637Y-76.945
Y-71.945
X-4.638Y-71.930
X-4.642Y-71.915
X-4.647Y-71.900
X-4.655Y-71.885
X-4.665Y-71.872
X-4.677Y-71.860
X-4.690Y-71.850
X-4.705Y-71.842
X-4.720Y-71.837
X-4.735Y-71.833
X-4.750Y-71.832
X-4.766Y-71.834
X-4.783Y-71.837
X-4.800Y-71.844
X-4.815Y-71.853
X-4.830Y-71.865
X-4.842Y-71.880
X-4.851Y-71.895
X-4.858Y-71.912
X-4.861Y-71.929
X-4.863Y-71.945
Y-76.945
G0Z5.080
G1Z-5.000F76.0
G1X-4.861Y-76.961F120.0
X-4.858Y-76.978
X-4.851Y-76.995
X-4.842Y-77.010
X-4.830Y-77.025
X-4.815Y-77.037
X-4.800Y-77.046
X-4.783Y-77.053
X-4.766Y-77.056
X-4.750Y-77.057
X-4.735Y-77.057
X-4.720Y-77.053
X-4.705Y-77.048
X-4.690Y-77.040
X-4.677Y-77.030
X-4.665Y-77.018
X-4.655Y-77.005
X-4.647Y-76.990
X-4.642Y-76.975
X-4.638Y-76.960
X-4.637Y-76.945
Y-71.945
X-4.638Y-71.930
X-4.642Y-71.915
X-4.647Y-71.900
X-4.655Y-71.885
X-4.665Y-71.872
X-4.677Y-71.860
X-4.690Y-71.850
X-4.705Y-71.842
X-4.720Y-71.837
X-4.735Y-71.833
X-4.750Y-71.832
X-4.766Y-71.834
X-4.783Y-71.837
X-4.800Y-71.844
X-4.815Y-71.853
X-4.830Y-71.865
X-4.842Y-71.880
X-4.851Y-71.895
X-4.858Y-71.912
X-4.861Y-71.929
X-4.863Y-71.945
Y-76.945
G0Z5.080
G0X-45.000Y-19.057
G1Z-1.000F76.0
G1X-44.984Y-19.056F120.0
X-44.967Y-19.053
X-44.950Y-19.046
X-44.935Y-19.037
X-44.920Y-19.025
X-44.908Y-19.010
X-44.899Y-18.995
X-44.892Y-18.978
X-44.889Y-18.961
X-44.888Y-18.945
X-44.889Y-18.929
X-44.892Y-18.912
X-44.899Y-18.895
X-44.908Y-18.880
X-44.920Y-18.865
X-44.935Y-18.853
X-44.950Y-18.844
X-44.967Y-18.837
X-44.984Y-18.834
X-45.000Y-18.832
X-45.016Y-18.834
X-45.033Y-18.837
X-45.050Y-18.844
X-45.065Y-18.853
X-45.080Y-18.865
X-45.092Y-18.880
X-45.101Y-18.895
X-45.108Y-18.912
X-45.111Y-18.929
X-45.112Y-18.945
X-45.111Y-18.961
X-45.108Y-18.978
X-45.101Y-18.995
X-45.092Y-19.010
X-45.080Y-19.025
X-45.065Y-19.037
X-45.050Y-19.046
X-45.033Y-19.053
X-45.016Y-19.056
X-45.000Y-19.057
G0Z5.080
G1Z-2.000F76.0
G1X-44.984Y-19.056F120.0
X-44.967Y-19.053
X-44.950Y-19.046
X-44.935Y-19.037
X-44.920Y-19.025
X-44.908Y-19.010
X-44.899Y-18.995
X-44.892Y-18.978
X-44.889Y-18.961
X-44.888Y-18.945
X-44.889Y-18.929
X-44.892Y-18.912
X-44.899Y-18.895
X-44.908Y-18.880
X-44.920Y-18.865
X-44.935Y-18.853
X-44.950Y-18.844
X-44.967Y-18.837
X-44.984Y-18.834
X-45.000Y-18.832
X-45.016Y-18.834
X-45.033Y-18.837
X-45.050Y-18.844
X-45.065Y-18.853
X-45.080Y-18.865
X-45.092Y-18.880
X-45.101Y-18.895
X-45.108Y-18.912
X-45.111Y-18.929
X-45.112Y-18.945
X-45.111Y-18.961
X-45.108Y-18.978
X-45.101Y-18.995
X-45.092Y-19.010
X-45.080Y-19.025
X-45.065Y-19.037
X-45.050Y-19.046
X-45.033Y-19.053
X-45.016Y-19.056
X-45.000Y-19.057
G0Z5.080
G1Z-3.000F76.0
G1X-44.984Y-19.056F120.0
X-44.967Y-19.053
X-44.950Y-19.046
X-44.935Y-19.037
X-44.920Y-19.025
X-44.908Y-19.010
X-44.899Y-18.995
X-44.892Y-18.978
X-44.889Y-18.961
X-44.888Y-18.945
X-44.889Y-18.929
X-44.892Y-18.912
X-44.899Y-18.895
X-44.908Y-18.880
X-44.920Y-18.865
X-44.935Y-18.853
X-44.950Y-18.844
X-44.967Y-18.837
X-44.984Y-18.834
X-45.000Y-18.832
X-45.016Y-18.834
X-45.033Y-18.837
X-45.050Y-18.844
X-45.065Y-18.853
X-45.080Y-18.865
X-45.092Y-18.880
X-45.101Y-18.895
X-45.108Y-18.912
X-45.111Y-18.929
X-45.112Y-18.945
X-45.111Y-18.961
X-45.108Y-18.978
X-45.101Y-18.995
X-45.092Y-19.010
X-45.080Y-19.025
X-45.065Y-19.037
X-45.050Y-19.046
X-45.033Y-19.053
X-45.016Y-19.056
X-45.000Y-19.057
G0Z5.080
G1Z-4.000F76.0
G1X-44.984Y-19.056F120.0
X-44.967Y-19.053
X-44.950Y-19.046
X-44.935Y-19.037
X-44.920Y-19.025
X-44.908Y-19.010
X-44.899Y-18.995
X-44.892Y-18.978
X-44.889Y-18.961
X-44.888Y-18.945
X-44.889Y-18.929
X-44.892Y-18.912
X-44.899Y-18.895
X-44.908Y-18.880
X-44.920Y-18.865
X-44.935Y-18.853
X-44.950Y-18.844
X-44.967Y-18.837
X-44.984Y-18.834
X-45.000Y-18.832
X-45.016Y-18.834
X-45.033Y-18.837
X-45.050Y-18.844
X-45.065Y-18.853
X-45.080Y-18.865
X-45.092Y-18.880
X-45.101Y-18.895
X-45.108Y-18.912
X-45.111Y-18.929
X-45.112Y-18.945
X-45.111Y-18.961
X-45.108Y-18.978
X-45.101Y-18.995
X-45.092Y-19.010
X-45.080Y-19.025
X-45.065Y-19.037
X-45.050Y-19.046
X-45.033Y-19.053
X-45.016Y-19.056
X-45.000Y-19.057
G0Z5.080
G1Z-5.000F76.0
G1X-44.984Y-19.056F120.0
X-44.967Y-19.053
X-44.950Y-19.046
X-44.935Y-19.037
X-44.920Y-19.025
X-44.908Y-19.010
X-44.899Y-18.995
X-44.892Y-18.978
X-44.889Y-18.961
X-44.888Y-18.945
X-44.889Y-18.929
X-44.892Y-18.912
X-44.899Y-18.895
X-44.908Y-18.880
X-44.920Y-18.865
X-44.935Y-18.853
X-44.950Y-18.844
X-44.967Y-18.837
X-44.984Y-18.834
X-45.000Y-18.832
X-45.016Y-18.834
X-45.033Y-18.837
X-45.050Y-18.844
X-45.065Y-18.853
X-45.080Y-18.865
X-45.092Y-18.880
X-45.101Y-18.895
X-45.108Y-18.912
X-45.111Y-18.929
X-45.112Y-18.945
X-45.111Y-18.961
X-45.108Y-18.978
X-45.101Y-18.995
X-45.092Y-19.010
X-45.080Y-19.025
X-45.065Y-19.037
X-45.050Y-19.046
X-45.033Y-19.053
X-45.016Y-19.056
X-45.000Y-19.057
G0Z5.080
G0X-4.887Y-18.945
G1Z-1.000F76.0
G1X-4.889Y-18.929F120.0
X-4.892Y-18.912
X-4.899Y-18.895
X-4.908Y-18.880
X-4.920Y-18.865
X-4.935Y-18.853
X-4.950Y-18.844
X-4.967Y-18.837
X-4.984Y-18.834
X-5.000Y-18.832
X-5.016Y-18.834
X-5.033Y-18.837
X-5.050Y-18.844
X-5.065Y-18.853
X-5.080Y-18.865
X-5.092Y-18.880
X-5.101Y-18.895
X-5.108Y-18.912
X-5.111Y-18.929
X-5.113Y-18.945
X-5.111Y-18.961
X-5.108Y-18.978
X-5.101Y-18.995
X-5.092Y-19.010
X-5.080Y-19.025
X-5.065Y-19.037
X-5.050Y-19.046
X-5.033Y-19.053
X-5.016Y-19.056
X-5.000Y-19.057
X-4.984Y-19.056
X-4.967Y-19.053
X-4.950Y-19.046
X-4.935Y-19.037
X-4.920Y-19.025
X-4.908Y-19.010
X-4.899Y-18.995
X-4.892Y-18.978
X-4.889Y-18.961
X-4.887Y-18.945
G0Z5.080
G1Z-2.000F76.0
G1X-4.889Y-18.929F120.0
X-4.892Y-18.912
X-4.899Y-18.895
X-4.908Y-18.880
X-4.920Y-18.865
X-4.935Y-18.853
X-4.950Y-18.844
X-4.967Y-18.837
X-4.984Y-18.834
X-5.000Y-18.832
X-5.016Y-18.834
X-5.033Y-18.837
X-5.050Y-18.844
X-5.065Y-18.853
X-5.080Y-18.865
X-5.092Y-18.880
X-5.101Y-18.895
X-5.108Y-18.912
X-5.111Y-18.929
X-5.113Y-18.945
X-5.111Y-18.961
X-5.108Y-18.978
X-5.101Y-18.995
X-5.092Y-19.010
X-5.080Y-19.025
X-5.065Y-19.037
X-5.050Y-19.046
X-5.033Y-19.053
X-5.016Y-19.056
X-5.000Y-19.057
X-4.984Y-19.056
X-4.967Y-19.053
X-4.950Y-19.046
X-4.935Y-19.037
X-4.920Y-19.025
X-4.908Y-19.010
X-4.899Y-18.995
X-4.892Y-18.978
X-4.889Y-18.961
X-4.887Y-18.945
G0Z5.080
G1Z-3.000F76.0
G1X-4.889Y-18.929F120.0
X-4.892Y-18.912
X-4.899Y-18.895
X-4.908Y-18.880
X-4.920Y-18.865
X-4.935Y-18.853
X-4.950Y-18.844
X-4.967Y-18.837
X-4.984Y-18.834
X-5.000Y-18.832
X-5.016Y-18.834
X-5.033Y-18.837
X-5.050Y-18.844
X-5.065Y-18.853
X-5.080Y-18.865
X-5.092Y-18.880
X-5.101Y-18.895
X-5.108Y-18.912
X-5.111Y-18.929
X-5.113Y-18.945
X-5.111Y-18.961
X-5.108Y-18.978
X-5.101Y-18.995
X-5.092Y-19.010
X-5.080Y-19.025
X-5.065Y-19.037
X-5.050Y-19.046
X-5.033Y-19.053
X-5.016Y-19.056
X-5.000Y-19.057
X-4.984Y-19.056
X-4.967Y-19.053
X-4.950Y-19.046
X-4.935Y-19.037
X-4.920Y-19.025
X-4.908Y-19.010
X-4.899Y-18.995
X-4.892Y-18.978
X-4.889Y-18.961
X-4.887Y-18.945
G0Z5.080
G1Z-4.000F76.0
G1X-4.889Y-18.929F120.0
X-4.892Y-18.912
X-4.899Y-18.895
X-4.908Y-18.880
X-4.920Y-18.865
X-4.935Y-18.853
X-4.950Y-18.844
X-4.967Y-18.837
X-4.984Y-18.834
X-5.000Y-18.832
X-5.016Y-18.834
X-5.033Y-18.837
X-5.050Y-18.844
X-5.065Y-18.853
X-5.080Y-18.865
X-5.092Y-18.880
X-5.101Y-18.895
X-5.108Y-18.912
X-5.111Y-18.929
X-5.113Y-18.945
X-5.111Y-18.961
X-5.108Y-18.978
X-5.101Y-18.995
X-5.092Y-19.010
X-5.080Y-19.025
X-5.065Y-19.037
X-5.050Y-19.046
X-5.033Y-19.053
X-5.016Y-19.056
X-5.000Y-19.057
X-4.984Y-19.056
X-4.967Y-19.053
X-4.950Y-19.046
X-4.935Y-19.037
X-4.920Y-19.025
X-4.908Y-19.010
X-4.899Y-18.995
X-4.892Y-18.978
X-4.889Y-18.961
X-4.887Y-18.945
G0Z5.080
G1Z-5.000F76.0
G1X-4.889Y-18.929F120.0
X-4.892Y-18.912
X-4.899Y-18.895
X-4.908Y-18.880
X-4.920Y-18.865
X-4.935Y-18.853
X-4.950Y-18.844
X-4.967Y-18.837
X-4.984Y-18.834
X-5.000Y-18.832
X-5.016Y-18.834
X-5.033Y-18.837
X-5.050Y-18.844
X-5.065Y-18.853
X-5.080Y-18.865
X-5.092Y-18.880
X-5.101Y-18.895
X-5.108Y-18.912
X-5.111Y-18.929
X-5.113Y-18.945
X-5.111Y-18.961
X-5.108Y-18.978
X-5.101Y-18.995
X-5.092Y-19.010
X-5.080Y-19.025
X-5.065Y-19.037
X-5.050Y-19.046
X-5.033Y-19.053
X-5.016Y-19.056
X-5.000Y-19.057
X-4.984Y-19.056
X-4.967Y-19.053
X-4.950Y-19.046
X-4.935Y-19.037
X-4.920Y-19.025
X-4.908Y-19.010
X-4.899Y-18.995
X-4.892Y-18.978
X-4.889Y-18.961
X-4.887Y-18.945
G0Z5.080
G0X-5.000Y20.943
G1Z-1.000F76.0
G1X-4.984Y20.944F120.0
X-4.967Y20.947
X-4.950Y20.954
X-4.935Y20.963
X-4.920Y20.975
X-4.908Y20.990
X-4.899Y21.005
X-4.892Y21.022
X-4.889Y21.039
X-4.887Y21.055
X-4.889Y21.071
X-4.892Y21.088
X-4.899Y21.105
X-4.908Y21.120
X-4.920Y21.135
X-4.935Y21.147
X-4.950Y21.156
X-4.967Y21.163
X-4.984Y21.166
X-5.000Y21.168
X-5.016Y21.166
X-5.033Y21.163
X-5.050Y21.156
X-5.065Y21.147
X-5.080Y21.135
X-5.092Y21.120
X-5.101Y21.105
X-5.108Y21.088
X-5.111Y21.071
X-5.113Y21.055
X-5.111Y21.039
X-5.108Y21.022
X-5.101Y21.005
X-5.092Y20.990
X-5.080Y20.975
X-5.065Y20.963
X-5.050Y20.954
X-5.033Y20.947
X-5.016Y20.944
X-5.000Y20.943
G0Z5.080
G1Z-2.000F76.0
G1X-4.984Y20.944F120.0
X-4.967Y20.947
X-4.950Y20.954
X-4.935Y20.963
X-4.920Y20.975
X-4.908Y20.990
X-4.899Y21.005
X-4.892Y21.022
X-4.889Y21.039
X-4.887Y21.055
X-4.889Y21.071
X-4.892Y21.088
X-4.899Y21.105
X-4.908Y21.120
X-4.920Y21.135
X-4.935Y21.147
X-4.950Y21.156
X-4.967Y21.163
X-4.984Y21.166
X-5.000Y21.168
X-5.016Y21.166
X-5.033Y21.163
X-5.050Y21.156
X-5.065Y21.147
X-5.080Y21.135
X-5.092Y21.120
X-5.101Y21.105
X-5.108Y21.088
X-5.111Y21.071
X-5.113Y21.055
X-5.111Y21.039
X-5.108Y21.022
X-5.101Y21.005
X-5.092Y20.990
X-5.080Y20.975
X-5.065Y20.963
X-5.050Y20.954
X-5.033Y20.947
X-5.016Y20.944
X-5.000Y20.943
G0Z5.080
G1Z-3.000F76.0
G1X-4.984Y20.944F120.0
X-4.967Y20.947
X-4.950Y20.954
X-4.935Y20.963
X-4.920Y20.975
X-4.908Y20.990
X-4.899Y21.005
X-4.892Y21.022
X-4.889Y21.039
X-4.887Y21.055
X-4.889Y21.071
X-4.892Y21.088
X-4.899Y21.105
X-4.908Y21.120
X-4.920Y21.135
X-4.935Y21.147
X-4.950Y21.156
X-4.967Y21.163
X-4.984Y21.166
X-5.000Y21.168
X-5.016Y21.166
X-5.033Y21.163
X-5.050Y21.156
X-5.065Y21.147
X-5.080Y21.135
X-5.092Y21.120
X-5.101Y21.105
X-5.108Y21.088
X-5.111Y21.071
X-5.113Y21.055
X-5.111Y21.039
X-5.108Y21.022
X-5.101Y21.005
X-5.092Y20.990
X-5.080Y20.975
X-5.065Y20.963
X-5.050Y20.954
X-5.033Y20.947
X-5.016Y20.944
X-5.000Y20.943
G0Z5.080
G1Z-4.000F76.0
G1X-4.984Y20.944F120.0
X-4.967Y20.947
X-4.950Y20.954
X-4.935Y20.963
X-4.920Y20.975
X-4.908Y20.990
X-4.899Y21.005
X-4.892Y21.022
X-4.889Y21.039
X-4.887Y21.055
X-4.889Y21.071
X-4.892Y21.088
X-4.899Y21.105
X-4.908Y21.120
X-4.920Y21.135
X-4.935Y21.147
X-4.950Y21.156
X-4.967Y21.163
X-4.984Y21.166
X-5.000Y21.168
X-5.016Y21.166
X-5.033Y21.163
X-5.050Y21.156
X-5.065Y21.147
X-5.080Y21.135
X-5.092Y21.120
X-5.101Y21.105
X-5.108Y21.088
X-5.111Y21.071
X-5.113Y21.055
X-5.111Y21.039
X-5.108Y21.022
X-5.101Y21.005
X-5.092Y20.990
X-5.080Y20.975
X-5.065Y20.963
X-5.050Y20.954
X-5.033Y20.947
X-5.016Y20.944
X-5.000Y20.943
G0Z5.080
G1Z-5.000F76.0
G1X-4.984Y20.944F120.0
X-4.967Y20.947
X-4.950Y20.954
X-4.935Y20.963
X-4.920Y20.975
X-4.908Y20.990
X-4.899Y21.005
X-4.892Y21.022
X-4.889Y21.039
X-4.887Y21.055
X-4.889Y21.071
X-4.892Y21.088
X-4.899Y21.105
X-4.908Y21.120
X-4.920Y21.135
X-4.935Y21.147
X-4.950Y21.156
X-4.967Y21.163
X-4.984Y21.166
X-5.000Y21.168
X-5.016Y21.166
X-5.033Y21.163
X-5.050Y21.156
X-5.065Y21.147
X-5.080Y21.135
X-5.092Y21.120
X-5.101Y21.105
X-5.108Y21.088
X-5.111Y21.071
X-5.113Y21.055
X-5.111Y21.039
X-5.108Y21.022
X-5.101Y21.005
X-5.092Y20.990
X-5.080Y20.975
X-5.065Y20.963
X-5.050Y20.954
X-5.033Y20.947
X-5.016Y20.944
X-5.000Y20.943
G0Z5.080
G0X-45.000
G1Z-1.000F76.0
G1X-44.984Y20.944F120.0
X-44.967Y20.947
X-44.950Y20.954
X-44.935Y20.963
X-44.920Y20.975
X-44.908Y20.990
X-44.899Y21.005
X-44.892Y21.022
X-44.889Y21.039
X-44.888Y21.055
X-44.889Y21.071
X-44.892Y21.088
X-44.899Y21.105
X-44.908Y21.120
X-44.920Y21.135
X-44.935Y21.147
X-44.950Y21.156
X-44.967Y21.163
X-44.984Y21.166
X-45.000Y21.168
X-45.016Y21.166
X-45.033Y21.163
X-45.050Y21.156
X-45.065Y21.147
X-45.080Y21.135
X-45.092Y21.120
X-45.101Y21.105
X-45.108Y21.088
X-45.111Y21.071
X-45.112Y21.055
X-45.111Y21.039
X-45.108Y21.022
X-45.101Y21.005
X-45.092Y20.990
X-45.080Y20.975
X-45.065Y20.963
X-45.050Y20.954
X-45.033Y20.947
X-45.016Y20.944
X-45.000Y20.943
G0Z5.080
G1Z-2.000F76.0
G1X-44.984Y20.944F120.0
X-44.967Y20.947
X-44.950Y20.954
X-44.935Y20.963
X-44.920Y20.975
X-44.908Y20.990
X-44.899Y21.005
X-44.892Y21.022
X-44.889Y21.039
X-44.888Y21.055
X-44.889Y21.071
X-44.892Y21.088
X-44.899Y21.105
X-44.908Y21.120
X-44.920Y21.135
X-44.935Y21.147
X-44.950Y21.156
X-44.967Y21.163
X-44.984Y21.166
X-45.000Y21.168
X-45.016Y21.166
X-45.033Y21.163
X-45.050Y21.156
X-45.065Y21.147
X-45.080Y21.135
X-45.092Y21.120
X-45.101Y21.105
X-45.108Y21.088
X-45.111Y21.071
X-45.112Y21.055
X-45.111Y21.039
X-45.108Y21.022
X-45.101Y21.005
X-45.092Y20.990
X-45.080Y20.975
X-45.065Y20.963
X-45.050Y20.954
X-45.033Y20.947
X-45.016Y20.944
X-45.000Y20.943
G0Z5.080
G1Z-3.000F76.0
G1X-44.984Y20.944F120.0
X-44.967Y20.947
X-44.950Y20.954
X-44.935Y20.963
X-44.920Y20.975
X-44.908Y20.990
X-44.899Y21.005
X-44.892Y21.022
X-44.889Y21.039
X-44.888Y21.055
X-44.889Y21.071
X-44.892Y21.088
X-44.899Y21.105
X-44.908Y21.120
X-44.920Y21.135
X-44.935Y21.147
X-44.950Y21.156
X-44.967Y21.163
X-44.984Y21.166
X-45.000Y21.168
X-45.016Y21.166
X-45.033Y21.163
X-45.050Y21.156
X-45.065Y21.147
X-45.080Y21.135
X-45.092Y21.120
X-45.101Y21.105
X-45.108Y21.088
X-45.111Y21.071
X-45.112Y21.055
X-45.111Y21.039
X-45.108Y21.022
X-45.101Y21.005
X-45.092Y20.990
X-45.080Y20.975
X-45.065Y20.963
X-45.050Y20.954
X-45.033Y20.947
X-45.016Y20.944
X-45.000Y20.943
G0Z5.080
G1Z-4.000F76.0
G1X-44.984Y20.944F120.0
X-44.967Y20.947
X-44.950Y20.954
X-44.935Y20.963
X-44.920Y20.975
X-44.908Y20.990
X-44.899Y21.005
X-44.892Y21.022
X-44.889Y21.039
X-44.888Y21.055
X-44.889Y21.071
X-44.892Y21.088
X-44.899Y21.105
X-44.908Y21.120
X-44.920Y21.135
X-44.935Y21.147
X-44.950Y21.156
X-44.967Y21.163
X-44.984Y21.166
X-45.000Y21.168
X-45.016Y21.166
X-45.033Y21.163
X-45.050Y21.156
X-45.065Y21.147
X-45.080Y21.135
X-45.092Y21.120
X-45.101Y21.105
X-45.108Y21.088
X-45.111Y21.071
X-45.112Y21.055
X-45.111Y21.039
X-45.108Y21.022
X-45.101Y21.005
X-45.092Y20.990
X-45.080Y20.975
X-45.065Y20.963
X-45.050Y20.954
X-45.033Y20.947
X-45.016Y20.944
X-45.000Y20.943
G0Z5.080
G1Z-5.000F76.0
G1X-44.984Y20.944F120.0
X-44.967Y20.947
X-44.950Y20.954
X-44.935Y20.963
X-44.920Y20.975
X-44.908Y20.990
X-44.899Y21.005
X-44.892Y21.022
X-44.889Y21.039
X-44.888Y21.055
X-44.889Y21.071
X-44.892Y21.088
X-44.899Y21.105
X-44.908Y21.120
X-44.920Y21.135
X-44.935Y21.147
X-44.950Y21.156
X-44.967Y21.163
X-44.984Y21.166
X-45.000Y21.168
X-45.016Y21.166
X-45.033Y21.163
X-45.050Y21.156
X-45.065Y21.147
X-45.080Y21.135
X-45.092Y21.120
X-45.101Y21.105
X-45.108Y21.088
X-45.111Y21.071
X-45.112Y21.055
X-45.111Y21.039
X-45.108Y21.022
X-45.101Y21.005
X-45.092Y20.990
X-45.080Y20.975
X-45.065Y20.963
X-45.050Y20.954
X-45.033Y20.947
X-45.016Y20.944
X-45.000Y20.943
G0Z5.080
G0X-4.863Y74.055
G1Z-1.000F76.0
G1X-4.862Y74.040F120.0
X-4.858Y74.025
X-4.853Y74.010
X-4.845Y73.995
X-4.835Y73.982
X-4.823Y73.970
X-4.810Y73.960
X-4.795Y73.952
X-4.780Y73.947
X-4.765Y73.943
X-4.750Y73.943
X-4.734Y73.944
X-4.717Y73.947
X-4.700Y73.954
X-4.685Y73.963
X-4.670Y73.975
X-4.658Y73.990
X-4.649Y74.005
X-4.642Y74.022
X-4.639Y74.039
X-4.637Y74.055
Y79.055
X-4.638Y79.070
X-4.642Y79.085
X-4.647Y79.100
X-4.655Y79.115
X-4.665Y79.128
X-4.677Y79.140
X-4.690Y79.150
X-4.705Y79.158
X-4.720Y79.163
X-4.735Y79.167
X-4.750Y79.168
X-4.766Y79.166
X-4.783Y79.163
X-4.800Y79.156
X-4.815Y79.147
X-4.830Y79.135
X-4.842Y79.120
X-4.851Y79.105
X-4.858Y79.088
X-4.861Y79.071
X-4.863Y79.055
Y74.055
G0Z5.080
G1Z-2.000F76.0
G1X-4.862Y74.040F120.0
X-4.858Y74.025
X-4.853Y74.010
X-4.845Y73.995
X-4.835Y73.982
X-4.823Y73.970
X-4.810Y73.960
X-4.795Y73.952
X-4.780Y73.947
X-4.765Y73.943
X-4.750Y73.943
X-4.734Y73.944
X-4.717Y73.947
X-4.700Y73.954
X-4.685Y73.963
X-4.670Y73.975
X-4.658Y73.990
X-4.649Y74.005
X-4.642Y74.022
X-4.639Y74.039
X-4.637Y74.055
Y79.055
X-4.638Y79.070
X-4.642Y79.085
X-4.647Y79.100
X-4.655Y79.115
X-4.665Y79.128
X-4.677Y79.140
X-4.690Y79.150
X-4.705Y79.158
X-4.720Y79.163
X-4.735Y79.167
X-4.750Y79.168
X-4.766Y79.166
X-4.783Y79.163
X-4.800Y79.156
X-4.815Y79.147
X-4.830Y79.135
X-4.842Y79.120
X-4.851Y79.105
X-4.858Y79.088
X-4.861Y79.071
X-4.863Y79.055
Y74.055
G0Z5.080
G1Z-3.000F76.0
G1X-4.862Y74.040F120.0
X-4.858Y74.025
X-4.853Y74.010
X-4.845Y73.995
X-4.835Y73.982
X-4.823Y73.970
X-4.810Y73.960
X-4.795Y73.952
X-4.780Y73.947
X-4.765Y73.943
X-4.750Y73.943
X-4.734Y73.944
X-4.717Y73.947
X-4.700Y73.954
X-4.685Y73.963
X-4.670Y73.975
X-4.658Y73.990
X-4.649Y74.005
X-4.642Y74.022
X-4.639Y74.039
X-4.637Y74.055
Y79.055
X-4.638Y79.070
X-4.642Y79.085
X-4.647Y79.100
X-4.655Y79.115
X-4.665Y79.128
X-4.677Y79.140
X-4.690Y79.150
X-4.705Y79.158
X-4.720Y79.163
X-4.735Y79.167
X-4.750Y79.168
X-4.766Y79.166
X-4.783Y79.163
X-4.800Y79.156
X-4.815Y79.147
X-4.830Y79.135
X-4.842Y79.120
X-4.851Y79.105
X-4.858Y79.088
X-4.861Y79.071
X-4.863Y79.055
Y74.055
G0Z5.080
G1Z-4.000F76.0
G1X-4.862Y74.040F120.0
X-4.858Y74.025
X-4.853Y74.010
X-4.845Y73.995
X-4.835Y73.982
X-4.823Y73.970
X-4.810Y73.960
X-4.795Y73.952
X-4.780Y73.947
X-4.765Y73.943
X-4.750Y73.943
X-4.734Y73.944
X-4.717Y73.947
X-4.700Y73.954
X-4.685Y73.963
X-4.670Y73.975
X-4.658Y73.990
X-4.649Y74.005
X-4.642Y74.022
X-4.639Y74.039
X-4.637Y74.055
Y79.055
X-4.638Y79.070
X-4.642Y79.085
X-4.647Y79.100
X-4.655Y79.115
X-4.665Y79.128
X-4.677Y79.140
X-4.690Y79.150
X-4.705Y79.158
X-4.720Y79.163
X-4.735Y79.167
X-4.750Y79.168
X-4.766Y79.166
X-4.783Y79.163
X-4.800Y79.156
X-4.815Y79.147
X-4.830Y79.135
X-4.842Y79.120
X-4.851Y79.105
X-4.858Y79.088
X-4.861Y79.071
X-4.863Y79.055
Y74.055
G0Z5.080
G1Z-5.000F76.0
G1X-4.862Y74.040F120.0
X-4.858Y74.025
X-4.853Y74.010
X-4.845Y73.995
X-4.835Y73.982
X-4.823Y73.970
X-4.810Y73.960
X-4.795Y73.952
X-4.780Y73.947
X-4.765Y73.943
X-4.750Y73.943
X-4.734Y73.944
X-4.717Y73.947
X-4.700Y73.954
X-4.685Y73.963
X-4.670Y73.975
X-4.658Y73.990
X-4.649Y74.005
X-4.642Y74.022
X-4.639Y74.039
X-4.637Y74.055
Y79.055
X-4.638Y79.070
X-4.642Y79.085
X-4.647Y79.100
X-4.655Y79.115
X-4.665Y79.128
X-4.677Y79.140
X-4.690Y79.150
X-4.705Y79.158
X-4.720Y79.163
X-4.735Y79.167
X-4.750Y79.168
X-4.766Y79.166
X-4.783Y79.163
X-4.800Y79.156
X-4.815Y79.147
X-4.830Y79.135
X-4.842Y79.120
X-4.851Y79.105
X-4.858Y79.088
X-4.861Y79.071
X-4.863Y79.055
Y74.055
G0Z5.080
G0X-45.138Y79.055
G1Z-1.000F76.0
G1X-45.138Y79.070F120.0
X-45.142Y79.085
X-45.147Y79.100
X-45.155Y79.115
X-45.165Y79.128
X-45.177Y79.140
X-45.190Y79.150
X-45.205Y79.158
X-45.220Y79.163
X-45.235Y79.167
X-45.250Y79.168
X-45.266Y79.166
X-45.283Y79.163
X-45.300Y79.156
X-45.315Y79.147
X-45.330Y79.135
X-45.342Y79.120
X-45.351Y79.105
X-45.358Y79.088
X-45.361Y79.071
X-45.362Y79.055
Y74.055
X-45.361Y74.039
X-45.358Y74.022
X-45.351Y74.005
X-45.342Y73.990
X-45.330Y73.975
X-45.315Y73.963
X-45.300Y73.954
X-45.283Y73.947
X-45.266Y73.944
X-45.250Y73.943
X-45.235Y73.943
X-45.220Y73.947
X-45.205Y73.952
X-45.190Y73.960
X-45.177Y73.970
X-45.165Y73.982
X-45.155Y73.995
X-45.147Y74.010
X-45.142Y74.025
X-45.138Y74.040
X-45.138Y74.055
Y79.055
G0Z5.080
G1Z-2.000F76.0
G1X-45.138Y79.070F120.0
X-45.142Y79.085
X-45.147Y79.100
X-45.155Y79.115
X-45.165Y79.128
X-45.177Y79.140
X-45.190Y79.150
X-45.205Y79.158
X-45.220Y79.163
X-45.235Y79.167
X-45.250Y79.168
X-45.266Y79.166
X-45.283Y79.163
X-45.300Y79.156
X-45.315Y79.147
X-45.330Y79.135
X-45.342Y79.120
X-45.351Y79.105
X-45.358Y79.088
X-45.361Y79.071
X-45.362Y79.055
Y74.055
X-45.361Y74.039
X-45.358Y74.022
X-45.351Y74.005
X-45.342Y73.990
X-45.330Y73.975
X-45.315Y73.963
X-45.300Y73.954
X-45.283Y73.947
X-45.266Y73.944
X-45.250Y73.943
X-45.235Y73.943
X-45.220Y73.947
X-45.205Y73.952
X-45.190Y73.960
X-45.177Y73.970
X-45.165Y73.982
X-45.155Y73.995
X-45.147Y74.010
X-45.142Y74.025
X-45.138Y74.040
X-45.138Y74.055
Y79.055
G0Z5.080
G1Z-3.000F76.0
G1X-45.138Y79.070F120.0
X-45.142Y79.085
X-45.147Y79.100
X-45.155Y79.115
X-45.165Y79.128
X-45.177Y79.140
X-45.190Y79.150
X-45.205Y79.158
X-45.220Y79.163
X-45.235Y79.167
X-45.250Y79.168
X-45.266Y79.166
X-45.283Y79.163
X-45.300Y79.156
X-45.315Y79.147
X-45.330Y79.135
X-45.342Y79.120
X-45.351Y79.105
X-45.358Y79.088
X-45.361Y79.071
X-45.362Y79.055
Y74.055
X-45.361Y74.039
X-45.358Y74.022
X-45.351Y74.005
X-45.342Y73.990
X-45.330Y73.975
X-45.315Y73.963
X-45.300Y73.954
X-45.283Y73.947
X-45.266Y73.944
X-45.250Y73.943
X-45.235Y73.943
X-45.220Y73.947
X-45.205Y73.952
X-45.190Y73.960
X-45.177Y73.970
X-45.165Y73.982
X-45.155Y73.995
X-45.147Y74.010
X-45.142Y74.025
X-45.138Y74.040
X-45.138Y74.055
Y79.055
G0Z5.080
G1Z-4.000F76.0
G1X-45.138Y79.070F120.0
X-45.142Y79.085
X-45.147Y79.100
X-45.155Y79.115
X-45.165Y79.128
X-45.177Y79.140
X-45.190Y79.150
X-45.205Y79.158
X-45.220Y79.163
X-45.235Y79.167
X-45.250Y79.168
X-45.266Y79.166
X-45.283Y79.163
X-45.300Y79.156
X-45.315Y79.147
X-45.330Y79.135
X-45.342Y79.120
X-45.351Y79.105
X-45.358Y79.088
X-45.361Y79.071
X-45.362Y79.055
Y74.055
X-45.361Y74.039
X-45.358Y74.022
X-45.351Y74.005
X-45.342Y73.990
X-45.330Y73.975
X-45.315Y73.963
X-45.300Y73.954
X-45.283Y73.947
X-45.266Y73.944
X-45.250Y73.943
X-45.235Y73.943
X-45.220Y73.947
X-45.205Y73.952
X-45.190Y73.960
X-45.177Y73.970
X-45.165Y73.982
X-45.155Y73.995
X-45.147Y74.010
X-45.142Y74.025
X-45.138Y74.040
X-45.138Y74.055
Y79.055
G0Z5.080
G1Z-5.000F76.0
G1X-45.138Y79.070F120.0
X-45.142Y79.085
X-45.147Y79.100
X-45.155Y79.115
X-45.165Y79.128
X-45.177Y79.140
X-45.190Y79.150
X-45.205Y79.158
X-45.220Y79.163
X-45.235Y79.167
X-45.250Y79.168
X-45.266Y79.166
X-45.283Y79.163
X-45.300Y79.156
X-45.315Y79.147
X-45.330Y79.135
X-45.342Y79.120
X-45.351Y79.105
X-45.358Y79.088
X-45.361Y79.071
X-45.362Y79.055
Y74.055
X-45.361Y74.039
X-45.358Y74.022
X-45.351Y74.005
X-45.342Y73.990
X-45.330Y73.975
X-45.315Y73.963
X-45.300Y73.954
X-45.283Y73.947
X-45.266Y73.944
X-45.250Y73.943
X-45.235Y73.943
X-45.220Y73.947
X-45.205Y73.952
X-45.190Y73.960
X-45.177Y73.970
X-45.165Y73.982
X-45.155Y73.995
X-45.147Y74.010
X-45.142Y74.025
X-45.138Y74.040
X-45.138Y74.055
Y79.055
G0Z5.080
G0X-26.253Y74.308Z5.080
G1Z-0.875F76.0
G1Y-72.197F120.0
X-23.747
Y74.308
X-26.253
G1X-27.523Y75.578
G1Y-73.467
X-22.477
Y75.578
X-27.523
G1X-28.792Y76.848
G1Y-74.737
X-21.208
Y76.848
X-28.792
G1X-30.062Y78.118
G1Y-76.007
X-19.938
Y78.118
X-30.062
G1X-31.333Y79.388
G1Y-77.277
X-18.667
Y79.388
X-31.333
G1X-32.603Y80.658
G1Y-78.547
X-17.397
Y80.658
X-32.603
G1X-33.873Y81.928
G1Y-79.817
X-16.128
Y81.928
X-33.873
G1X-35.143Y83.198
G1Y-81.087
X-14.858
Y83.198
X-35.143
G1X-36.412Y84.468
G1Y-82.357
X-13.587
Y84.468
X-36.412
G0Z5.080
G0X-26.253Y74.308
G1Z-1.750F76.0
G1Y-72.197F120.0
X-23.747
Y74.308
X-26.253
G1X-27.523Y75.578
G1Y-73.467
X-22.477
Y75.578
X-27.523
G1X-28.792Y76.848
G1Y-74.737
X-21.208
Y76.848
X-28.792
G1X-30.062Y78.118
G1Y-76.007
X-19.938
Y78.118
X-30.062
G1X-31.333Y79.388
G1Y-77.277
X-18.667
Y79.388
X-31.333
G1X-32.603Y80.658
G1Y-78.547
X-17.397
Y80.658
X-32.603
G1X-33.873Y81.928
G1Y-79.817
X-16.128
Y81.928
X-33.873
G1X-35.143Y83.198
G1Y-81.087
X-14.858
Y83.198
X-35.143
G1X-36.412Y84.468
G1Y-82.357
X-13.587
Y84.468
X-36.412
G0Z5.080
G0X-13.587Y-1.714Z5.080
G1Z-1.000F76.0
G1Y4.461F120.0
Y10.325
Y16.500
Y18.579
X-13.922Y18.792
X-14.262Y19.000
X-14.605Y19.201
X-14.954Y19.396
X-15.306Y19.585
X-15.662Y19.767
X-16.022Y19.942
X-16.385Y20.111
X-16.752Y20.272
X-17.122Y20.427
X-17.495Y20.574
X-17.871Y20.715
X-18.249Y20.848
X-18.630Y20.974
X-19.013Y21.092
X-19.397Y21.203
X-19.784Y21.306
X-20.171Y21.402
X-20.560Y21.491
X-20.951Y21.572
X-21.342Y21.645
X-21.733Y21.711
X-22.115Y21.768
X-22.498Y21.817
X-22.883Y21.860
X-23.268Y21.896
X-23.655Y21.924
X-24.042Y21.946
X-24.429Y21.960
X-24.817Y21.967
X-25.205Y21.967
X-25.592Y21.959
X-25.980Y21.945
X-26.367Y21.923
X-26.753Y21.894
X-27.138Y21.858
X-27.522Y21.815
X-27.905Y21.765
X-28.296Y21.706
X-28.686Y21.640
X-29.076Y21.566
X-29.465Y21.485
X-29.853Y21.397
X-30.240Y21.300
X-30.625Y21.197
X-31.008Y21.086
X-31.390Y20.967
X-31.769Y20.842
X-32.146Y20.709
X-32.520Y20.568
X-32.892Y20.421
X-33.261Y20.267
X-33.626Y20.106
X-33.988Y19.937
X-34.347Y19.763
X-34.701Y19.581
X-35.052Y19.393
X-35.399Y19.199
X-35.741Y18.998
X-36.079Y18.792
X-36.412Y18.579
Y16.700
Y10.525
Y3.824
Y-2.351
Y-6.651
Y-12.826
Y-16.469
X-36.082Y-16.680
X-35.747Y-16.885
X-35.408Y-17.084
X-35.064Y-17.277
X-34.716Y-17.463
X-34.365Y-17.644
X-34.009Y-17.817
X-33.650Y-17.984
X-33.288Y-18.145
X-32.923Y-18.299
X-32.554Y-18.445
X-32.183Y-18.585
X-31.809Y-18.718
X-31.433Y-18.843
X-31.055Y-18.962
X-30.675Y-19.073
X-30.293Y-19.177
X-29.909Y-19.273
X-29.524Y-19.362
X-29.138Y-19.444
X-28.751Y-19.518
X-28.363Y-19.585
X-27.975Y-19.645
X-27.587Y-19.697
X-27.203Y-19.741
X-26.819Y-19.778
X-26.433Y-19.808
X-26.047Y-19.831
X-25.659Y-19.847
X-25.272Y-19.856
X-24.884Y-19.857
X-24.496Y-19.851
X-24.109Y-19.838
X-23.722Y-19.818
X-23.335Y-19.791
X-22.949Y-19.757
X-22.564Y-19.715
X-22.180Y-19.667
X-21.798Y-19.611
X-21.417Y-19.548
X-21.023Y-19.476
X-20.629Y-19.396
X-20.237Y-19.308
X-19.845Y-19.212
X-19.455Y-19.109
X-19.067Y-18.998
X-18.680Y-18.880
X-18.296Y-18.754
X-17.914Y-18.620
X-17.535Y-18.480
X-17.158Y-18.331
X-16.784Y-18.176
X-16.414Y-18.013
X-16.047Y-17.844
X-15.683Y-17.667
X-15.323Y-17.484
X-14.967Y-17.294
X-14.616Y-17.097
X-14.268Y-16.894
X-13.926Y-16.685
X-13.587Y-16.469
Y-15.532
Y-9.357
Y-1.714
G1Z-2.000F76.0
G1Y4.461F120.0
Y10.325
Y16.500
Y18.579
X-13.922Y18.792
X-14.262Y19.000
X-14.605Y19.201
X-14.954Y19.396
X-15.306Y19.585
X-15.662Y19.767
X-16.022Y19.942
X-16.385Y20.111
X-16.752Y20.272
X-17.122Y20.427
X-17.495Y20.574
X-17.871Y20.715
X-18.249Y20.848
X-18.630Y20.974
X-19.013Y21.092
X-19.397Y21.203
X-19.784Y21.306
X-20.171Y21.402
X-20.560Y21.491
X-20.951Y21.572
X-21.342Y21.645
X-21.733Y21.711
X-22.115Y21.768
X-22.498Y21.817
X-22.883Y21.860
X-23.268Y21.896
X-23.655Y21.924
X-24.042Y21.946
X-24.429Y21.960
X-24.817Y21.967
X-25.205Y21.967
X-25.592Y21.959
X-25.980Y21.945
X-26.367Y21.923
X-26.753Y21.894
X-27.138Y21.858
X-27.522Y21.815
X-27.905Y21.765
X-28.296Y21.706
X-28.686Y21.640
X-29.076Y21.566
X-29.465Y21.485
X-29.853Y21.397
X-30.240Y21.300
X-30.625Y21.197
X-31.008Y21.086
X-31.390Y20.967
X-31.769Y20.842
X-32.146Y20.709
X-32.520Y20.568
X-32.892Y20.421
X-33.261Y20.267
X-33.626Y20.106
X-33.988Y19.937
X-34.347Y19.763
X-34.701Y19.581
X-35.052Y19.393
X-35.399Y19.199
X-35.741Y18.998
X-36.079Y18.792
X-36.412Y18.579
Y16.700
Y10.525
Y3.824
Y-2.351
Y-6.651
Y-12.826
Y-16.469
X-36.082Y-16.680
X-35.747Y-16.885
X-35.408Y-17.084
X-35.064Y-17.277
X-34.716Y-17.463
X-34.365Y-17.644
X-34.009Y-17.817
X-33.650Y-17.984
X-33.288Y-18.145
X-32.923Y-18.299
X-32.554Y-18.445
X-32.183Y-18.585
X-31.809Y-18.718
X-31.433Y-18.843
X-31.055Y-18.962
X-30.675Y-19.073
X-30.293Y-19.177
X-29.909Y-19.273
X-29.524Y-19.362
X-29.138Y-19.444
X-28.751Y-19.518
X-28.363Y-19.585
X-27.975Y-19.645
X-27.587Y-19.697
X-27.203Y-19.741
X-26.819Y-19.778
X-26.433Y-19.808
X-26.047Y-19.831
X-25.659Y-19.847
X-25.272Y-19.856
X-24.884Y-19.857
X-24.496Y-19.851
X-24.109Y-19.838
X-23.722Y-19.818
X-23.335Y-19.791
X-22.949Y-19.757
X-22.564Y-19.715
X-22.180Y-19.667
X-21.798Y-19.611
X-21.417Y-19.548
X-21.023Y-19.476
X-20.629Y-19.396
X-20.237Y-19.308
X-19.845Y-19.212
X-19.455Y-19.109
X-19.067Y-18.998
X-18.680Y-18.880
X-18.296Y-18.754
X-17.914Y-18.620
X-17.535Y-18.480
X-17.158Y-18.331
X-16.784Y-18.176
X-16.414Y-18.013
X-16.047Y-17.844
X-15.683Y-17.667
X-15.323Y-17.484
X-14.967Y-17.294
X-14.616Y-17.097
X-14.268Y-16.894
X-13.926Y-16.685
X-13.587Y-16.469
Y-15.532
Y-9.357
Y-1.714
G1Z-3.000F76.0
G1Y4.461F120.0
Y10.325
Y16.500
Y18.579
X-13.922Y18.792
X-14.262Y19.000
X-14.605Y19.201
X-14.954Y19.396
X-15.306Y19.585
X-15.662Y19.767
X-16.022Y19.942
X-16.385Y20.111
X-16.752Y20.272
X-17.122Y20.427
X-17.495Y20.574
X-17.871Y20.715
X-18.249Y20.848
X-18.630Y20.974
X-19.013Y21.092
X-19.397Y21.203
X-19.784Y21.306
X-20.171Y21.402
X-20.560Y21.491
X-20.951Y21.572
X-21.342Y21.645
X-21.733Y21.711
X-22.115Y21.768
X-22.498Y21.817
X-22.883Y21.860
X-23.268Y21.896
X-23.655Y21.924
X-24.042Y21.946
X-24.429Y21.960
X-24.817Y21.967
X-25.205Y21.967
X-25.592Y21.959
X-25.980Y21.945
X-26.367Y21.923
X-26.753Y21.894
X-27.138Y21.858
X-27.522Y21.815
X-27.905Y21.765
X-28.296Y21.706
X-28.686Y21.640
X-29.076Y21.566
X-29.465Y21.485
X-29.853Y21.397
X-30.240Y21.300
X-30.625Y21.197
X-31.008Y21.086
X-31.390Y20.967
X-31.769Y20.842
X-32.146Y20.709
X-32.520Y20.568
X-32.892Y20.421
X-33.261Y20.267
X-33.626Y20.106
X-33.988Y19.937
X-34.347Y19.763
X-34.701Y19.581
X-35.052Y19.393
X-35.399Y19.199
X-35.741Y18.998
X-36.079Y18.792
X-36.412Y18.579
Y16.700
Y10.525
Y3.824
Y-2.351
Y-6.651
Y-12.826
Y-16.469
X-36.082Y-16.680
X-35.747Y-16.885
X-35.408Y-17.084
X-35.064Y-17.277
X-34.716Y-17.463
X-34.365Y-17.644
X-34.009Y-17.817
X-33.650Y-17.984
X-33.288Y-18.145
X-32.923Y-18.299
X-32.554Y-18.445
X-32.183Y-18.585
X-31.809Y-18.718
X-31.433Y-18.843
X-31.055Y-18.962
X-30.675Y-19.073
X-30.293Y-19.177
X-29.909Y-19.273
X-29.524Y-19.362
X-29.138Y-19.444
X-28.751Y-19.518
X-28.363Y-19.585
X-27.975Y-19.645
X-27.587Y-19.697
X-27.203Y-19.741
X-26.819Y-19.778
X-26.433Y-19.808
X-26.047Y-19.831
X-25.659Y-19.847
X-25.272Y-19.856
X-24.884Y-19.857
X-24.496Y-19.851
X-24.109Y-19.838
X-23.722Y-19.818
X-23.335Y-19.791
X-22.949Y-19.757
X-22.564Y-19.715
X-22.180Y-19.667
X-21.798Y-19.611
X-21.417Y-19.548
X-21.023Y-19.476
X-20.629Y-19.396
X-20.237Y-19.308
X-19.845Y-19.212
X-19.455Y-19.109
X-19.067Y-18.998
X-18.680Y-18.880
X-18.296Y-18.754
X-17.914Y-18.620
X-17.535Y-18.480
X-17.158Y-18.331
X-16.784Y-18.176
X-16.414Y-18.013
X-16.047Y-17.844
X-15.683Y-17.667
X-15.323Y-17.484
X-14.967Y-17.294
X-14.616Y-17.097
X-14.268Y-16.894
X-13.926Y-16.685
X-13.587Y-16.469
Y-15.532
Y-9.357
Y-1.714
G1Z-4.000F76.0
G1Z-3.000F120.0
Y4.461
G1Z-4.000F76.0
G1Y10.325F120.0
Z-3.000
Y16.500
G1Z-4.000F76.0
G1Y18.579F120.0
X-13.922Y18.792
X-14.262Y19.000
X-14.605Y19.201
X-14.954Y19.396
X-15.306Y19.585
X-15.662Y19.767
X-16.022Y19.942
X-16.385Y20.111
X-16.752Y20.272
X-17.122Y20.427
X-17.495Y20.574
X-17.871Y20.715
X-18.249Y20.848
X-18.630Y20.974
X-19.013Y21.092
X-19.397Y21.203
X-19.784Y21.306
X-20.171Y21.402
X-20.560Y21.491
X-20.951Y21.572
X-21.342Y21.645
X-21.733Y21.711
Z-3.000
X-22.115Y21.768
X-22.498Y21.817
X-22.883Y21.860
X-23.268Y21.896
X-23.655Y21.924
X-24.042Y21.946
X-24.429Y21.960
X-24.817Y21.967
X-25.205Y21.967
X-25.592Y21.959
X-25.980Y21.945
X-26.367Y21.923
X-26.753Y21.894
X-27.138Y21.858
X-27.522Y21.815
X-27.905Y21.765
G1Z-4.000F76.0
G1X-28.296Y21.706F120.0
X-28.686Y21.640
X-29.076Y21.566
X-29.465Y21.485
X-29.853Y21.397
X-30.240Y21.300
X-30.625Y21.197
X-31.008Y21.086
X-31.390Y20.967
X-31.769Y20.842
X-32.146Y20.709
X-32.520Y20.568
X-32.892Y20.421
X-33.261Y20.267
X-33.626Y20.106
X-33.988Y19.937
X-34.347Y19.763
X-34.701Y19.581
X-35.052Y19.393
X-35.399Y19.199
X-35.741Y18.998
X-36.079Y18.792
X-36.412Y18.579
Y16.700
Z-3.000
Y10.525
G1Z-4.000F76.0
G1Y3.824F120.0
Z-3.000
Y-2.351
G1Z-4.000F76.0
G1Y-6.651F120.0
Z-3.000
Y-12.826
G1Z-4.000F76.0
G1Y-16.469F120.0
X-36.082Y-16.680
X-35.747Y-16.885
X-35.408Y-17.084
X-35.064Y-17.277
X-34.716Y-17.463
X-34.365Y-17.644
X-34.009Y-17.817
X-33.650Y-17.984
X-33.288Y-18.145
X-32.923Y-18.299
X-32.554Y-18.445
X-32.183Y-18.585
X-31.809Y-18.718
X-31.433Y-18.843
X-31.055Y-18.962
X-30.675Y-19.073
X-30.293Y-19.177
X-29.909Y-19.273
X-29.524Y-19.362
X-29.138Y-19.444
X-28.751Y-19.518
X-28.363Y-19.585
X-27.975Y-19.645
X-27.587Y-19.697
Z-3.000
X-27.203Y-19.741
X-26.819Y-19.778
X-26.433Y-19.808
X-26.047Y-19.831
X-25.659Y-19.847
X-25.272Y-19.856
X-24.884Y-19.857
X-24.496Y-19.851
X-24.109Y-19.838
X-23.722Y-19.818
X-23.335Y-19.791
X-22.949Y-19.757
X-22.564Y-19.715
X-22.180Y-19.667
X-21.798Y-19.611
X-21.417Y-19.548
G1Z-4.000F76.0
G1X-21.023Y-19.476F120.0
X-20.629Y-19.396
X-20.237Y-19.308
X-19.845Y-19.212
X-19.455Y-19.109
X-19.067Y-18.998
X-18.680Y-18.880
X-18.296Y-18.754
X-17.914Y-18.620
X-17.535Y-18.480
X-17.158Y-18.331
X-16.784Y-18.176
X-16.414Y-18.013
X-16.047Y-17.844
X-15.683Y-17.667
X-15.323Y-17.484
X-14.967Y-17.294
X-14.616Y-17.097
X-14.268Y-16.894
X-13.926Y-16.685
X-13.587Y-16.469
Y-15.532
Z-3.000
Y-9.357
G1Z-4.000F76.0
G1Y-1.714F120.0
G1Z-5.000F76.0
G1Z-3.000F120.0
Y4.461
G1Z-5.000F76.0
G1Y10.325F120.0
Z-3.000
Y16.500
G1Z-5.000F76.0
G1Y18.579F120.0
X-13.922Y18.792
X-14.262Y19.000
X-14.605Y19.201
X-14.954Y19.396
X-15.306Y19.585
X-15.662Y19.767
X-16.022Y19.942
X-16.385Y20.111
X-16.752Y20.272
X-17.122Y20.427
X-17.495Y20.574
X-17.871Y20.715
X-18.249Y20.848
X-18.630Y20.974
X-19.013Y21.092
X-19.397Y21.203
X-19.784Y21.306
X-20.171Y21.402
X-20.560Y21.491
X-20.951Y21.572
X-21.342Y21.645
X-21.733Y21.711
Z-3.000
X-22.115Y21.768
X-22.498Y21.817
X-22.883Y21.860
X-23.268Y21.896
X-23.655Y21.924
X-24.042Y21.946
X-24.429Y21.960
X-24.817Y21.967
X-25.205Y21.967
X-25.592Y21.959
X-25.980Y21.945
X-26.367Y21.923
X-26.753Y21.894
X-27.138Y21.858
X-27.522Y21.815
X-27.905Y21.765
G1Z-5.000F76.0
G1X-28.296Y21.706F120.0
X-28.686Y21.640
X-29.076Y21.566
X-29.465Y21.485
X-29.853Y21.397
X-30.240Y21.300
X-30.625Y21.197
X-31.008Y21.086
X-31.390Y20.967
X-31.769Y20.842
X-32.146Y20.709
X-32.520Y20.568
X-32.892Y20.421
X-33.261Y20.267
X-33.626Y20.106
X-33.988Y19.937
X-34.347Y19.763
X-34.701Y19.581
X-35.052Y19.393
X-35.399Y19.199
X-35.741Y18.998
X-36.079Y18.792
X-36.412Y18.579
Y16.700
Z-3.000
Y10.525
G1Z-5.000F76.0
G1Y3.824F120.0
Z-3.000
Y-2.351
G1Z-5.000F76.0
G1Y-6.651F120.0
Z-3.000
Y-12.826
G1Z-5.000F76.0
G1Y-16.469F120.0
X-36.082Y-16.680
X-35.747Y-16.885
X-35.408Y-17.084
X-35.064Y-17.277
X-34.716Y-17.463
X-34.365Y-17.644
X-34.009Y-17.817
X-33.650Y-17.984
X-33.288Y-18.145
X-32.923Y-18.299
X-32.554Y-18.445
X-32.183Y-18.585
X-31.809Y-18.718
X-31.433Y-18.843
X-31.055Y-18.962
X-30.675Y-19.073
X-30.293Y-19.177
X-29.909Y-19.273
X-29.524Y-19.362
X-29.138Y-19.444
X-28.751Y-19.518
X-28.363Y-19.585
X-27.975Y-19.645
X-27.587Y-19.697
Z-3.000
X-27.203Y-19.741
X-26.819Y-19.778
X-26.433Y-19.808
X-26.047Y-19.831
X-25.659Y-19.847
X-25.272Y-19.856
X-24.884Y-19.857
X-24.496Y-19.851
X-24.109Y-19.838
X-23.722Y-19.818
X-23.335Y-19.791
X-22.949Y-19.757
X-22.564Y-19.715
X-22.180Y-19.667
X-21.798Y-19.611
X-21.417Y-19.548
G1Z-5.000F76.0
G1X-21.023Y-19.476F120.0
X-20.629Y-19.396
X-20.237Y-19.308
X-19.845Y-19.212
X-19.455Y-19.109
X-19.067Y-18.998
X-18.680Y-18.880
X-18.296Y-18.754
X-17.914Y-18.620
X-17.535Y-18.480
X-17.158Y-18.331
X-16.784Y-18.176
X-16.414Y-18.013
X-16.047Y-17.844
X-15.683Y-17.667
X-15.323Y-17.484
X-14.967Y-17.294
X-14.616Y-17.097
X-14.268Y-16.894
X-13.926Y-16.685
X-13.587Y-16.469
Y-15.532
Z-3.000
Y-9.357
G1Z-5.000F76.0
G1Y-1.714F120.0
G0Z5.080
G0X-11.087Y-83.945Z5.080
G1Z-0.750F76.0
G1Y86.055F120.0
G0Z5.080
G0X-38.912Y86.055Z5.080
G1Z-0.750F76.0
G1Y-83.945F120.0
G0Z5.080
G0X0.000Y-85.532Z5.080
G1Z-1.000F76.0
G1X-5.274F120.0
X-11.449
X-21.368
X-27.543
X-38.136
X-44.311
X-50.000
G0Z5.080
G0X0.000
G1Z-2.000F76.0
G1X-5.274F120.0
X-11.449
X-21.368
X-27.543
X-38.136
X-44.311
X-50.000
G0Z5.080
G0X0.000
G1Z-3.000F76.0
G1X-5.274F120.0
X-11.449
X-21.368
X-27.543
X-38.136
X-44.311
X-50.000
G0Z5.080
G0X0.000
G1Z-4.000F76.0
G1X-5.274F120.0
Z-3.000
X-11.449
G1Z-4.000F76.0
G1X-21.368F120.0
Z-3.000
X-27.543
G1Z-4.000F76.0
G1X-38.136F120.0
Z-3.000
X-44.311
G1Z-4.000F76.0
G1X-50.000F120.0
G0Z5.080
G0X0.000
G1Z-5.000F76.0
G1X-5.274F120.0
Z-3.000
X-11.449
G1Z-5.000F76.0
G1X-21.368F120.0
Z-3.000
X-27.543
G1Z-5.000F76.0
G1X-38.136F120.0
Z-3.000
X-44.311
G1Z-5.000F76.0
G1X-50.000F120.0
G0Z5.080
G0X-50.000Y87.643Z5.080
G1Z-1.000F76.0
G1X-47.286F120.0
X-41.111
X-27.387
X-21.212
X-7.488
X-1.313
X0.000
G0Z5.080
G0X-50.000
G1Z-2.000F76.0
G1X-47.286F120.0
X-41.111
X-27.387
X-21.212
X-7.488
X-1.313
X0.000
G0Z5.080
G0X-50.000
G1Z-3.000F76.0
G1X-47.286F120.0
X-41.111
X-27.387
X-21.212
X-7.488
X-1.313
X0.000
G0Z5.080
G0X-50.000
G1Z-4.000F76.0
G1X-47.286F120.0
Z-3.000
X-41.111
G1Z-4.000F76.0
G1X-27.387F120.0
Z-3.000
X-21.212
G1Z-4.000F76.0
G1X-7.488F120.0
Z-3.000
X-1.313
G1Z-4.000F76.0
G1X0.000F120.0
G0Z5.080
G0X-50.000
G1Z-5.000F76.0
G1X-47.286F120.0
Z-3.000
X-41.111
G1Z-5.000F76.0
G1X-27.387F120.0
Z-3.000
X-21.212
G1Z-5.000F76.0
G1X-7.488F120.0
Z-3.000
X-1.313
G1Z-5.000F76.0
G1X0.000F120.0
G0Z5.080
G0X1.587Y86.055Z5.080
G1Z-1.000F76.0
G1Y77.877F120.0
Y71.702
Y24.866
Y18.691
Y-18.316
Y-24.491
Y-54.062
Y-60.237
Y-83.945
G0Z5.080
G0Y86.055
G1Z-2.000F76.0
G1Y77.877F120.0
Y71.702
Y24.866
Y18.691
Y-18.316
Y-24.491
Y-54.062
Y-60.237
Y-83.945
G0Z5.080
G0Y86.055
G1Z-3.000F76.0
G1Y77.877F120.0
Y71.702
Y24.866
Y18.691
Y-18.316
Y-24.491
Y-54.062
Y-60.237
Y-83.945
G0Z5.080
G0Y86.055
G1Z-4.000F76.0
G1Y77.877F120.0
Z-3.000
Y71.702
G1Z-4.000F76.0
G1Y24.866F120.0
Z-3.000
Y18.691
G1Z-4.000F76.0
G1Y-18.316F120.0
Z-3.000
Y-24.491
G1Z-4.000F76.0
G1Y-54.062F120.0
Z-3.000
Y-60.237
G1Z-4.000F76.0
G1Y-83.945F120.0
G0Z5.080
G0Y86.055
G1Z-5.000F76.0
G1Y77.877F120.0
Z-3.000
Y71.702
G1Z-5.000F76.0
G1Y24.866F120.0
Z-3.000
Y18.691
G1Z-5.000F76.0
G1Y-18.316F120.0
Z-3.000
Y-24.491
G1Z-5.000F76.0
G1Y-54.062F120.0
Z-3.000
Y-60.237
G1Z-5.000F76.0
G1Y-83.945F120.0
G0Z5.080
G0Z20.320
G0X0.000Y0.000
M30
